; generated by Slic3r 0.9.8 on 2013-03-17 at 22:43:29

; layer_height = 0.21
; perimeters = 2
; top_solid_layers = 4
; bottom_solid_layers = 4
; fill_density = 0.2
; perimeter_speed = 45
; infill_speed = 45
; travel_speed = 200
; scale = 1
; nozzle_diameter = 0.35
; filament_diameter = 2.8
; extrusion_multiplier = 1.088
; perimeters extrusion width = 0.49mm
; infill extrusion width = 0.49mm
; first layer extrusion width = 0.42mm

M107
M190 S70 ; wait for bed temperature to be reached
M104 S200 ; set temperature
G28 ; home all axes
M109 S200 ; wait for temperature to be reached
G90 ; use absolute coordinates
G21 ; set units to millimeters
G92 E0
M82 ; use absolute distances for extrusion
G1 F600.000 E-1.00000
G92 E0
G1 Z0.350 F12000.000
G1 X73.879 Y140.707
G1 F600.000 E1.00000
G1 X33.739 Y117.537 F1350.000 E2.16077
G1 X33.219 Y117.217 E2.17606
G1 X32.719 Y116.857 E2.19149
G1 X32.249 Y116.467 E2.20679
G1 X31.809 Y116.037 E2.22220
G1 X31.399 Y115.587 E2.23744
G1 X31.209 Y115.347 E2.24511
G1 X30.679 Y114.597 E2.26811
G1 X30.379 Y114.077 E2.28315
G1 X30.109 Y113.527 E2.29849
G1 X29.769 Y112.667 E2.32165
G1 X29.529 Y111.787 E2.34450
G1 X29.379 Y110.887 E2.36735
G1 X29.339 Y110.277 E2.38266
G1 X29.329 Y109.667 E2.39794
G1 X29.369 Y109.057 E2.41325
G1 X29.449 Y108.447 E2.42866
G1 X32.549 Y89.987 E2.89746
G1 X33.099 Y87.117 E2.97065
G1 X33.369 Y86.037 E2.99853
G1 X34.219 Y83.427 E3.06728
G1 X34.629 Y82.407 E3.09481
G1 X35.789 Y79.937 E3.16315
G1 X36.329 Y78.957 E3.19118
G1 X37.799 Y76.647 E3.25975
G1 X38.429 Y75.767 E3.28686
G1 X40.169 Y73.657 E3.35535
G1 X40.949 Y72.827 E3.38388
G1 X42.949 Y70.957 E3.45245
G1 X43.699 Y70.337 E3.47683
G1 X57.659 Y59.907 E3.91326
G1 X58.429 Y59.387 E3.93653
G1 X59.259 Y58.957 E3.95994
G1 X59.829 Y58.717 E3.97543
G1 X60.419 Y58.517 E3.99104
G1 X61.029 Y58.367 E4.00677
G1 X61.639 Y58.257 E4.02229
G1 X62.249 Y58.187 E4.03767
G1 X62.879 Y58.157 E4.05347
G1 X63.189 Y58.157 E4.06123
G1 X63.809 Y58.197 E4.07679
G1 X64.419 Y58.287 E4.09223
G1 X65.029 Y58.407 E4.10780
G1 X65.629 Y58.577 E4.12342
G1 X66.219 Y58.797 E4.13919
G1 X66.789 Y59.047 E4.15478
G1 X67.329 Y59.337 E4.17013
G1 X136.519 Y99.287 E6.17112
G1 X137.029 Y99.627 E6.18647
G1 X137.509 Y100.007 E6.20180
G1 X138.189 Y100.637 E6.22502
G1 X138.399 Y100.857 E6.23263
G1 X138.979 Y101.577 E6.25579
G1 X139.479 Y102.347 E6.27878
G1 X139.769 Y102.897 E6.29436
G1 X140.019 Y103.457 E6.30971
G1 X140.319 Y104.327 E6.33276
G1 X140.529 Y105.227 E6.35591
G1 X140.639 Y106.137 E6.37887
G1 X140.659 Y106.757 E6.39440
G1 X140.639 Y107.367 E6.40969
G1 X140.529 Y108.287 E6.43289
G1 X140.469 Y108.587 E6.44056
G1 X140.319 Y109.187 E6.45604
G1 X140.019 Y110.057 E6.47909
G1 X139.769 Y110.617 E6.49445
G1 X139.479 Y111.157 E6.50980
G1 X134.379 Y119.997 E6.76541
G1 X131.289 Y125.327 E6.91971
G1 X130.959 Y125.867 E6.93556
G1 X130.389 Y126.617 E6.95915
G1 X129.969 Y127.077 E6.97475
G1 X129.509 Y127.507 E6.99052
G1 X129.029 Y127.907 E7.00617
G1 X128.519 Y128.277 E7.02195
G1 X128.249 Y128.447 E7.02994
G1 X127.699 Y128.747 E7.04563
G1 X126.839 Y129.137 E7.06928
G1 X126.549 Y129.247 E7.07705
G1 X125.949 Y129.427 E7.09274
G1 X80.249 Y141.667 E8.27764
G1 X79.329 Y141.827 E8.30103
G1 X78.379 Y141.887 E8.32487
G1 X78.069 Y141.887 E8.33263
G1 X77.439 Y141.847 E8.34844
G1 X76.819 Y141.767 E8.36410
G1 X76.199 Y141.637 E8.37996
G1 X75.299 Y141.367 E8.40350
G1 X74.719 Y141.137 E8.41912
G1 X73.932 Y140.737 E8.44124
G1 X73.879 Y140.707 E8.44276
G1 X74.079 Y140.357 F12000.000
G1 X33.939 Y117.187 F1350.000 E9.60353
G1 X33.429 Y116.867 E9.61861
G1 X33.179 Y116.697 E9.62618
G1 X32.709 Y116.327 E9.64116
G1 X32.059 Y115.707 E9.66366
G1 X31.849 Y115.487 E9.67127
G1 X31.469 Y115.027 E9.68622
G1 X30.959 Y114.287 E9.70873
G1 X30.669 Y113.757 E9.72386
G1 X30.409 Y113.217 E9.73887
G1 X30.099 Y112.377 E9.76129
G1 X29.889 Y111.497 E9.78395
G1 X29.789 Y110.907 E9.79894
G1 X29.759 Y110.607 E9.80649
G1 X29.739 Y110.307 E9.81402
G1 X29.749 Y109.407 E9.83656
G1 X29.769 Y109.107 E9.84409
G1 X29.849 Y108.517 E9.85900
G1 X32.979 Y89.877 E10.33238
G1 X33.489 Y87.197 E10.40070
G1 X33.759 Y86.167 E10.42737
G1 X34.609 Y83.557 E10.49612
G1 X34.989 Y82.587 E10.52221
G1 X36.149 Y80.117 E10.59055
G1 X36.669 Y79.177 E10.61746
G1 X38.139 Y76.867 E10.68603
G1 X38.749 Y76.027 E10.71203
G1 X40.489 Y73.917 E10.78053
G1 X41.229 Y73.127 E10.80764
G1 X43.229 Y71.257 E10.87621
G1 X43.939 Y70.667 E10.89933
G1 X57.899 Y60.237 E11.33577
G1 X58.659 Y59.727 E11.35869
G1 X59.199 Y59.437 E11.37404
G1 X59.759 Y59.187 E11.38940
G1 X60.329 Y58.977 E11.40462
G1 X60.629 Y58.887 E11.41246
G1 X61.519 Y58.677 E11.43536
G1 X62.129 Y58.597 E11.45077
G1 X62.739 Y58.567 E11.46607
G1 X63.349 Y58.577 E11.48135
G1 X63.959 Y58.627 E11.49668
G1 X64.259 Y58.667 E11.50426
G1 X64.859 Y58.787 E11.51958
G1 X65.449 Y58.947 E11.53489
G1 X66.029 Y59.157 E11.55034
G1 X66.589 Y59.397 E11.56560
G1 X67.129 Y59.687 E11.58095
G1 X136.309 Y99.637 E13.58172
G1 X137.049 Y100.147 E13.60423
G1 X137.499 Y100.537 E13.61914
G1 X137.929 Y100.957 E13.63419
G1 X138.139 Y101.177 E13.64181
G1 X138.519 Y101.637 E13.65675
G1 X139.029 Y102.377 E13.67926
G1 X139.319 Y102.907 E13.69439
G1 X139.579 Y103.447 E13.70940
G1 X139.889 Y104.287 E13.73183
G1 X140.099 Y105.167 E13.75449
G1 X140.199 Y105.757 E13.76948
G1 X140.229 Y106.057 E13.77703
G1 X140.249 Y106.357 E13.78456
G1 X140.239 Y107.257 E13.80710
G1 X140.179 Y107.857 E13.82220
G1 X140.079 Y108.447 E13.83719
G1 X140.019 Y108.737 E13.84460
G1 X139.859 Y109.317 E13.85967
G1 X139.539 Y110.157 E13.88219
G1 X139.279 Y110.697 E13.89720
G1 X134.029 Y119.797 E14.16032
G1 X130.939 Y125.127 E14.31462
G1 X130.609 Y125.657 E14.33025
G1 X130.429 Y125.917 E14.33817
G1 X130.039 Y126.407 E14.35386
G1 X129.609 Y126.867 E14.36963
G1 X129.149 Y127.297 E14.38540
G1 X128.909 Y127.497 E14.39322
G1 X128.399 Y127.867 E14.40900
G1 X128.139 Y128.037 E14.41678
G1 X127.589 Y128.347 E14.43260
G1 X127.029 Y128.627 E14.44828
G1 X126.739 Y128.747 E14.45614
G1 X125.839 Y129.037 E14.47982
G1 X80.459 Y141.197 E15.65646
G1 X79.839 Y141.337 E15.67238
G1 X79.219 Y141.427 E15.68807
G1 X78.589 Y141.477 E15.70390
G1 X77.969 Y141.477 E15.71943
G1 X77.649 Y141.457 E15.72746
G1 X76.719 Y141.337 E15.75094
G1 X76.109 Y141.197 E15.76661
G1 X75.499 Y141.007 E15.78262
G1 X74.629 Y140.647 E15.80620
G1 X74.132 Y140.387 E15.82025
G1 X74.079 Y140.357 E15.82177
G1 F600.000 E14.82177
G92 E0
G1 X120.095 Y108.743 F12000.000
G1 F600.000 E1.00000
G1 X119.930 Y108.489 F1050.000 E1.00758
G1 X119.798 Y108.217 E1.01516
G1 X119.704 Y107.936 E1.02258
G1 X118.820 Y104.639 E1.10807
G1 X118.762 Y104.349 E1.11548
G1 X118.740 Y104.047 E1.12306
G1 X118.756 Y103.745 E1.13064
G1 X118.809 Y103.447 E1.13822
G1 X118.900 Y103.158 E1.14580
G1 X119.026 Y102.882 E1.15339
G1 X119.185 Y102.625 E1.16097
G1 X119.376 Y102.390 E1.16855
G1 X119.594 Y102.181 E1.17613
G1 X119.837 Y102.000 E1.18371
G1 X120.101 Y101.851 E1.19129
G1 X120.381 Y101.737 E1.19887
G1 X120.674 Y101.659 E1.20645
G1 X120.974 Y101.618 E1.21403
G1 X121.276 Y101.615 E1.22162
G1 X121.577 Y101.649 E1.22919
G1 X121.871 Y101.721 E1.23678
G1 X122.154 Y101.830 E1.24436
G1 X122.420 Y101.973 E1.25194
G1 X122.667 Y102.148 E1.25952
G1 X122.890 Y102.353 E1.26710
G1 X123.085 Y102.584 E1.27468
G1 X123.250 Y102.838 E1.28227
G1 X123.382 Y103.111 E1.28985
G1 X123.476 Y103.391 E1.29726
G1 X124.360 Y106.688 E1.38274
G1 X124.418 Y106.979 E1.39016
G1 X124.440 Y107.281 E1.39775
G1 X124.424 Y107.584 E1.40534
G1 X124.371 Y107.881 E1.41290
G1 X124.280 Y108.170 E1.42049
G1 X124.154 Y108.445 E1.42807
G1 X123.994 Y108.702 E1.43566
G1 X123.804 Y108.937 E1.44324
G1 X123.586 Y109.147 E1.45081
G1 X123.343 Y109.327 E1.45840
G1 X123.080 Y109.476 E1.46596
G1 X122.799 Y109.590 E1.47356
G1 X122.506 Y109.669 E1.48114
G1 X122.207 Y109.710 E1.48872
G1 X121.904 Y109.713 E1.49630
G1 X121.603 Y109.678 E1.50388
G1 X121.309 Y109.606 E1.51146
G1 X121.027 Y109.497 E1.51904
G1 X120.760 Y109.354 E1.52662
G1 X120.513 Y109.179 E1.53421
G1 X120.290 Y108.974 E1.54179
G1 X120.134 Y108.789 E1.54784
G1 X120.095 Y108.743 E1.54937
G1 X119.692 Y108.781 F12000.000
G1 F600.000 E0.54937
G92 E0
G1 X69.973 Y96.014 F12000.000
G1 F600.000 E1.00000
G1 X69.704 Y96.843 F1350.000 E1.02183
G1 X68.613 Y98.732 E1.07646
G1 X68.213 Y99.216 E1.09219
G1 X67.541 Y99.847 E1.11528
G1 X66.794 Y100.389 E1.13838
G1 X65.986 Y100.833 E1.16148
G1 X65.129 Y101.173 E1.18458
G1 X64.235 Y101.402 E1.20768
G1 X63.913 Y101.443 E1.21582
G1 X61.805 Y101.443 E1.26861
G1 X61.482 Y101.402 E1.27676
G1 X60.589 Y101.173 E1.29984
G1 X59.732 Y100.833 E1.32295
G1 X58.924 Y100.389 E1.34605
G1 X58.177 Y99.847 E1.36915
G1 X57.505 Y99.216 E1.39224
G1 X57.105 Y98.731 E1.40797
G1 X56.014 Y96.842 E1.46261
G1 X55.745 Y96.014 E1.48442
G1 X55.572 Y95.108 E1.50752
G1 X55.514 Y94.187 E1.53062
G1 X55.572 Y93.267 E1.55372
G1 X55.745 Y92.361 E1.57681
G1 X56.014 Y91.532 E1.59863
G1 X57.105 Y89.643 E1.65327
G1 X57.505 Y89.159 E1.66899
G1 X58.177 Y88.528 E1.69209
G1 X58.385 Y88.377 E1.69851
G1 X58.924 Y87.986 E1.71519
G1 X59.732 Y87.542 E1.73829
G1 X60.589 Y87.202 E1.76139
G1 X61.483 Y86.973 E1.78449
G1 X61.805 Y86.932 E1.79264
G1 X63.913 Y86.932 E1.84543
G1 X64.235 Y86.973 E1.85356
G1 X65.129 Y87.202 E1.87666
G1 X65.986 Y87.542 E1.89976
G1 X66.794 Y87.986 E1.92286
G1 X67.541 Y88.528 E1.94596
G1 X68.213 Y89.159 E1.96906
G1 X68.613 Y89.643 E1.98479
G1 X69.704 Y91.533 E2.03942
G1 X69.973 Y92.361 E2.06123
G1 X70.146 Y93.267 E2.08433
G1 X70.204 Y94.187 E2.10743
G1 X70.146 Y95.108 E2.13053
G1 X69.984 Y95.954 E2.15210
G1 X69.973 Y96.014 E2.15363
G1 X69.580 Y95.913 F12000.000
G1 X69.332 Y96.677 F1350.000 E2.17375
G1 X68.279 Y98.500 E2.22646
G1 X67.917 Y98.938 E2.24069
G1 X67.282 Y99.534 E2.26251
G1 X66.577 Y100.046 E2.28434
G1 X65.813 Y100.466 E2.30616
G1 X65.003 Y100.787 E2.32799
G1 X64.159 Y101.003 E2.34981
G1 X63.887 Y101.038 E2.35667
G1 X61.830 Y101.038 E2.40819
G1 X61.559 Y101.003 E2.41505
G1 X60.715 Y100.787 E2.43687
G1 X59.905 Y100.466 E2.45870
G1 X59.141 Y100.046 E2.48052
G1 X58.436 Y99.534 E2.50234
G1 X57.801 Y98.938 E2.52416
G1 X57.438 Y98.499 E2.53840
G1 X56.386 Y96.677 E2.59111
G1 X56.138 Y95.913 E2.61122
G1 X55.975 Y95.057 E2.63305
G1 X55.920 Y94.187 E2.65487
G1 X55.975 Y93.318 E2.67670
G1 X56.138 Y92.462 E2.69852
G1 X56.386 Y91.698 E2.71864
G1 X57.439 Y89.875 E2.77135
G1 X57.801 Y89.437 E2.78558
G1 X58.436 Y88.841 E2.80740
G1 X58.623 Y88.705 E2.81319
G1 X59.141 Y88.329 E2.82923
G1 X59.905 Y87.909 E2.85105
G1 X60.715 Y87.588 E2.87288
G1 X61.559 Y87.371 E2.89470
G1 X61.831 Y87.337 E2.90157
G1 X63.888 Y87.337 E2.95308
G1 X64.159 Y87.371 E2.95994
G1 X65.003 Y87.588 E2.98176
G1 X65.813 Y87.909 E3.00359
G1 X66.577 Y88.329 E3.02541
G1 X67.282 Y88.841 E3.04723
G1 X67.917 Y89.437 E3.06906
G1 X68.280 Y89.875 E3.08330
G1 X69.332 Y91.698 E3.13601
G1 X69.580 Y92.462 E3.15612
G1 X69.743 Y93.318 E3.17794
G1 X69.798 Y94.187 E3.19977
G1 X69.743 Y95.057 E3.22159
G1 X69.591 Y95.853 E3.24189
G1 X69.580 Y95.913 E3.24341
G1 X69.187 Y95.812 F12000.000
G1 X68.960 Y96.511 F1350.000 E3.26183
G1 X67.946 Y98.268 E3.31262
G1 X67.621 Y98.660 E3.32536
G1 X67.023 Y99.221 E3.34591
G1 X66.360 Y99.703 E3.36645
G1 X65.641 Y100.099 E3.38700
G1 X64.878 Y100.401 E3.40755
G1 X64.083 Y100.605 E3.42810
G1 X63.862 Y100.633 E3.43369
G1 X61.856 Y100.633 E3.48393
G1 X61.635 Y100.605 E3.48951
G1 X60.840 Y100.401 E3.51005
G1 X60.077 Y100.099 E3.53060
G1 X59.358 Y99.703 E3.55115
G1 X58.695 Y99.221 E3.57170
G1 X58.097 Y98.660 E3.59224
G1 X57.772 Y98.267 E3.60499
G1 X56.758 Y96.511 E3.65578
G1 X56.531 Y95.812 E3.67419
G1 X56.377 Y95.006 E3.69474
G1 X56.326 Y94.187 E3.71529
G1 X56.377 Y93.369 E3.73584
G1 X56.531 Y92.563 E3.75638
G1 X56.758 Y91.863 E3.77480
G1 X57.772 Y90.107 E3.82559
G1 X58.097 Y89.715 E3.83833
G1 X58.695 Y89.153 E3.85888
G1 X58.861 Y89.033 E3.86402
G1 X59.358 Y88.671 E3.87943
G1 X60.077 Y88.276 E3.89998
G1 X60.840 Y87.974 E3.92052
G1 X61.635 Y87.770 E3.94107
G1 X61.856 Y87.742 E3.94666
G1 X63.862 Y87.742 E3.99690
G1 X64.083 Y87.770 E4.00248
G1 X64.878 Y87.974 E4.02303
G1 X65.641 Y88.276 E4.04357
G1 X66.360 Y88.671 E4.06412
G1 X67.023 Y89.153 E4.08467
G1 X67.621 Y89.715 E4.10522
G1 X67.946 Y90.107 E4.11797
G1 X68.960 Y91.863 E4.16875
G1 X69.187 Y92.563 E4.18717
G1 X69.341 Y93.369 E4.20771
G1 X69.392 Y94.187 E4.22826
G1 X69.341 Y95.006 E4.24881
G1 X69.198 Y95.752 E4.26783
G1 X69.187 Y95.812 E4.26936
G1 X69.470 Y96.101 F12000.000
G1 F600.000 E3.26936
G92 E0
G1 X74.403 Y114.057 F12000.000
G1 F600.000 E1.00000
G1 X74.696 Y113.978 F1050.000 E1.00758
G1 X74.995 Y113.937 E1.01516
G1 X75.298 Y113.934 E1.02274
G1 X75.599 Y113.969 E1.03033
G1 X75.893 Y114.041 E1.03791
G1 X76.175 Y114.150 E1.04549
G1 X76.442 Y114.293 E1.05307
G1 X76.689 Y114.468 E1.06065
G1 X76.912 Y114.673 E1.06823
G1 X77.107 Y114.904 E1.07581
G1 X77.272 Y115.158 E1.08339
G1 X77.404 Y115.431 E1.09098
G1 X77.498 Y115.711 E1.09839
G1 X78.382 Y119.008 E1.18387
G1 X78.440 Y119.298 E1.19129
G1 X78.462 Y119.600 E1.19887
G1 X78.446 Y119.903 E1.20645
G1 X78.393 Y120.201 E1.21403
G1 X78.302 Y120.489 E1.22162
G1 X78.176 Y120.765 E1.22920
G1 X78.017 Y121.022 E1.23678
G1 X77.826 Y121.257 E1.24436
G1 X77.608 Y121.467 E1.25194
G1 X77.365 Y121.647 E1.25952
G1 X77.101 Y121.796 E1.26710
G1 X76.821 Y121.910 E1.27468
G1 X76.528 Y121.988 E1.28227
G1 X76.229 Y122.029 E1.28985
G1 X75.926 Y122.033 E1.29743
G1 X75.625 Y121.998 E1.30501
G1 X75.331 Y121.926 E1.31259
G1 X75.049 Y121.817 E1.32017
G1 X74.782 Y121.674 E1.32775
G1 X74.535 Y121.499 E1.33533
G1 X74.312 Y121.294 E1.34291
G1 X74.117 Y121.063 E1.35049
G1 X73.952 Y120.809 E1.35808
G1 X73.820 Y120.536 E1.36566
G1 X73.726 Y120.256 E1.37307
G1 X72.842 Y116.959 E1.45856
G1 X72.784 Y116.669 E1.46597
G1 X72.762 Y116.367 E1.47355
G1 X72.778 Y116.064 E1.48114
G1 X72.831 Y115.766 E1.48872
G1 X72.922 Y115.478 E1.49630
G1 X73.048 Y115.202 E1.50388
G1 X73.207 Y114.945 E1.51146
G1 X73.398 Y114.710 E1.51904
G1 X73.616 Y114.500 E1.52662
G1 X73.859 Y114.320 E1.53420
G1 X74.123 Y114.171 E1.54178
G1 X74.347 Y114.080 E1.54785
G1 X74.403 Y114.057 E1.54937
G1 X74.492 Y113.662 F12000.000
G1 F600.000 E0.54937
G92 E0
G1 X77.602 Y111.539 F12000.000
G1 F600.000 E1.00000
G1 X116.644 Y101.077 F1350.000 E2.01232
G1 X121.930 Y120.802 E2.52374
G1 X82.887 Y131.263 E3.53606
G1 X77.618 Y111.598 E4.04596
G1 X77.602 Y111.539 E4.04748
G1 X77.497 Y111.148 F12000.000
G1 F600.000 E3.04748
G92 E0
G1 X77.584 Y123.597 F12000.000
G1 F600.000 E1.00000
G1 X77.886 Y123.594 F1050.000 E1.00758
G1 X78.187 Y123.628 E1.01516
G1 X78.481 Y123.701 E1.02274
G1 X78.764 Y123.809 E1.03032
G1 X79.030 Y123.952 E1.03790
G1 X79.277 Y124.127 E1.04549
G1 X79.500 Y124.332 E1.05307
G1 X79.695 Y124.563 E1.06065
G1 X79.860 Y124.817 E1.06823
G1 X79.992 Y125.090 E1.07581
G1 X80.086 Y125.371 E1.08323
G1 X80.970 Y128.667 E1.16871
G1 X81.028 Y128.958 E1.17613
G1 X81.050 Y129.260 E1.18371
G1 X81.035 Y129.562 E1.19129
G1 X80.981 Y129.860 E1.19887
G1 X80.890 Y130.149 E1.20645
G1 X80.764 Y130.424 E1.21403
G1 X80.605 Y130.681 E1.22161
G1 X80.414 Y130.916 E1.22920
G1 X80.196 Y131.126 E1.23678
G1 X79.953 Y131.306 E1.24436
G1 X79.689 Y131.455 E1.25194
G1 X79.409 Y131.569 E1.25952
G1 X79.117 Y131.648 E1.26710
G1 X78.817 Y131.689 E1.27468
G1 X78.514 Y131.692 E1.28226
G1 X78.213 Y131.657 E1.28984
G1 X77.919 Y131.585 E1.29742
G1 X77.637 Y131.476 E1.30501
G1 X77.370 Y131.333 E1.31259
G1 X77.123 Y131.158 E1.32017
G1 X76.900 Y130.953 E1.32775
G1 X76.705 Y130.722 E1.33533
G1 X76.540 Y130.468 E1.34291
G1 X76.408 Y130.196 E1.35049
G1 X76.314 Y129.915 E1.35791
G1 X75.431 Y126.618 E1.44339
G1 X75.372 Y126.328 E1.45081
G1 X75.350 Y126.026 E1.45839
G1 X75.366 Y125.724 E1.46597
G1 X75.419 Y125.426 E1.47355
G1 X75.510 Y125.137 E1.48113
G1 X75.636 Y124.862 E1.48871
G1 X75.795 Y124.604 E1.49630
G1 X75.986 Y124.369 E1.50388
G1 X76.204 Y124.160 E1.51146
G1 X76.447 Y123.979 E1.51904
G1 X76.711 Y123.831 E1.52662
G1 X76.991 Y123.716 E1.53420
G1 X77.284 Y123.638 E1.54178
G1 X77.524 Y123.605 E1.54784
G1 X77.584 Y123.597 E1.54936
G1 X77.768 Y123.236 F12000.000
G1 F600.000 E0.54936
G92 E0
G1 X81.761 Y130.192 F12000.000
G1 F600.000 E1.00000
G1 X82.043 Y131.242 F1050.000 E1.02724
