; generated by Slic3r 0.9.8 on 2013-03-10 at 00:39:21

; layer_height = 0.21
; perimeters = 2
; top_solid_layers = 4
; bottom_solid_layers = 4
; fill_density = 0.2
; perimeter_speed = 45
; infill_speed = 45
; travel_speed = 200
; scale = 1
; nozzle_diameter = 0.35
; filament_diameter = 2.8
; extrusion_multiplier = 1.088
; perimeters extrusion width = 0.49mm
; infill extrusion width = 0.49mm
; first layer extrusion width = 0.37mm

M190 S70 ; wait for bed temperature to be reached
M104 S205 ; set temperature
G28 ; home all axes
M109 S205 ; wait for temperature to be reached
G90 ; use absolute coordinates
G21 ; set units to millimeters
G92 E0
M82 ; use absolute distances for extrusion
M106 S382
G1 F600.000 E-1.00000
G92 E0
G1 Z0.350 F12000.000
G1 X120.840 Y109.150
G1 F600.000 E1.00000
G1 X113.770 Y141.940 F1080.000 E1.75456
G1 X113.600 Y142.530 E1.76838
G1 X113.390 Y143.100 E1.78204
G1 X113.150 Y143.650 E1.79554
G1 X112.860 Y144.190 E1.80933
G1 X112.540 Y144.700 E1.82287
G1 X112.180 Y145.200 E1.83673
G1 X111.580 Y145.880 E1.85713
G1 X111.140 Y146.300 E1.87081
G1 X110.430 Y146.880 E1.89144
G1 X109.930 Y147.220 E1.90504
G1 X109.130 Y147.660 E1.92558
G1 X108.290 Y148.010 E1.94605
G1 X107.420 Y148.280 E1.96654
G1 X106.820 Y148.410 E1.98035
G1 X105.920 Y148.520 E2.00075
G1 X105.310 Y148.540 E2.01448
G1 X85.680 Y148.540 E2.45605
G1 X85.060 Y148.520 E2.47001
G1 X84.430 Y148.450 E2.48427
G1 X83.820 Y148.340 E2.49821
G1 X82.920 Y148.090 E2.51922
G1 X82.330 Y147.870 E2.53339
G1 X81.760 Y147.610 E2.54748
G1 X81.210 Y147.310 E2.56157
G1 X80.690 Y146.970 E2.57555
G1 X80.430 Y146.790 E2.58266
G1 X79.950 Y146.390 E2.59672
G1 X79.490 Y145.970 E2.61073
G1 X79.070 Y145.510 E2.62474
G1 X51.070 Y113.010 E3.58974
G1 X50.500 Y112.270 E3.61075
G1 X50.160 Y111.750 E3.62473
G1 X50.010 Y111.480 E3.63168
G1 X49.610 Y110.640 E3.65260
G1 X49.300 Y109.760 E3.67359
G1 X49.090 Y108.850 E3.69460
G1 X48.970 Y107.930 E3.71547
G1 X48.950 Y107.310 E3.72943
G1 X48.950 Y87.680 E4.17100
G1 X48.980 Y87.040 E4.18542
G1 X49.100 Y86.080 E4.20718
G1 X49.240 Y85.460 E4.22148
G1 X49.430 Y84.840 E4.23607
G1 X49.790 Y83.950 E4.25766
G1 X62.930 Y56.170 E4.94896
G1 X63.070 Y55.900 E4.95580
G1 X63.570 Y55.120 E4.97664
G1 X63.940 Y54.630 E4.99045
G1 X64.350 Y54.170 E5.00431
G1 X64.790 Y53.740 E5.01815
G1 X65.260 Y53.340 E5.03204
G1 X65.500 Y53.150 E5.03892
G1 X66.270 Y52.650 E5.05957
G1 X67.090 Y52.220 E5.08040
G1 X67.660 Y51.990 E5.09423
G1 X68.250 Y51.800 E5.10817
G1 X68.850 Y51.650 E5.12208
G1 X69.450 Y51.540 E5.13581
G1 X70.060 Y51.470 E5.14962
G1 X70.680 Y51.450 E5.16357
G1 X105.310 Y51.450 E5.94258
G1 X105.920 Y51.470 E5.95631
G1 X106.820 Y51.580 E5.97670
G1 X107.410 Y51.710 E5.99029
G1 X108.000 Y51.880 E6.00411
G1 X108.280 Y51.970 E6.01072
G1 X108.850 Y52.200 E6.02455
G1 X109.660 Y52.610 E6.04497
G1 X110.170 Y52.930 E6.05851
G1 X110.670 Y53.290 E6.07237
G1 X111.350 Y53.880 E6.09263
G1 X111.980 Y54.550 E6.11331
G1 X112.530 Y55.270 E6.13369
G1 X112.850 Y55.790 E6.14743
G1 X113.140 Y56.320 E6.16102
G1 X113.500 Y57.160 E6.18158
G1 X113.600 Y57.440 E6.18827
G1 X113.770 Y58.030 E6.20208
G1 X120.850 Y85.880 E6.84849
G1 X120.920 Y86.240 E6.85674
G1 X121.010 Y86.960 E6.87307
G1 X121.040 Y87.680 E6.88928
G1 X121.040 Y107.310 E7.33085
G1 X121.010 Y108.050 E7.34751
G1 X120.970 Y108.420 E7.35589
G1 X120.850 Y109.096 E7.37134
G1 X120.840 Y109.150 E7.37257
G1 X120.490 Y109.070 F12000.000
G1 X113.420 Y141.860 F1080.000 E8.12713
G1 X113.150 Y142.720 E8.14741
G1 X112.800 Y143.540 E8.16746
G1 X112.660 Y143.810 E8.17430
G1 X112.190 Y144.570 E8.19441
G1 X111.640 Y145.280 E8.21461
G1 X111.230 Y145.720 E8.22814
G1 X110.560 Y146.320 E8.24837
G1 X110.090 Y146.680 E8.26169
G1 X109.320 Y147.150 E8.28198
G1 X108.790 Y147.420 E8.29536
G1 X108.520 Y147.540 E8.30201
G1 X107.960 Y147.740 E8.31538
G1 X107.380 Y147.910 E8.32898
G1 X106.800 Y148.040 E8.34235
G1 X106.210 Y148.130 E8.35578
G1 X105.610 Y148.170 E8.36930
G1 X85.370 Y148.170 E8.82460
G1 X84.740 Y148.120 E8.83882
G1 X84.130 Y148.030 E8.85269
G1 X83.520 Y147.890 E8.86677
G1 X82.920 Y147.710 E8.88086
G1 X82.340 Y147.480 E8.89490
G1 X81.770 Y147.210 E8.90908
G1 X80.970 Y146.720 E8.93019
G1 X80.470 Y146.350 E8.94418
G1 X79.990 Y145.940 E8.95838
G1 X79.340 Y145.270 E8.97938
G1 X51.340 Y112.770 E9.94438
G1 X51.140 Y112.530 E9.95140
G1 X50.770 Y112.020 E9.96558
G1 X50.290 Y111.220 E9.98656
G1 X49.900 Y110.370 E10.00760
G1 X49.600 Y109.480 E10.02873
G1 X49.460 Y108.870 E10.04281
G1 X49.410 Y108.560 E10.04987
G1 X49.320 Y107.620 E10.07111
G1 X49.320 Y87.340 E10.52731
G1 X49.340 Y87.010 E10.53475
G1 X49.420 Y86.340 E10.54993
G1 X49.480 Y86.010 E10.55747
G1 X49.640 Y85.360 E10.57253
G1 X49.740 Y85.040 E10.58007
G1 X49.980 Y84.410 E10.59524
G1 X63.250 Y56.330 E11.29388
G1 X63.550 Y55.800 E11.30758
G1 X63.890 Y55.300 E11.32119
G1 X64.070 Y55.050 E11.32812
G1 X64.460 Y54.580 E11.34185
G1 X64.670 Y54.360 E11.34870
G1 X65.340 Y53.740 E11.36923
G1 X65.830 Y53.370 E11.38304
G1 X66.330 Y53.030 E11.39664
G1 X67.140 Y52.600 E11.41727
G1 X67.990 Y52.260 E11.43787
G1 X68.280 Y52.170 E11.44470
G1 X69.170 Y51.950 E11.46532
G1 X69.470 Y51.900 E11.47216
G1 X70.380 Y51.820 E11.49271
G1 X105.610 Y51.820 E12.28521
G1 X106.200 Y51.860 E12.29852
G1 X106.800 Y51.950 E12.31216
G1 X107.380 Y52.080 E12.32554
G1 X107.950 Y52.240 E12.33885
G1 X108.790 Y52.570 E12.35915
G1 X109.580 Y52.990 E12.37928
G1 X110.080 Y53.310 E12.39263
G1 X110.560 Y53.670 E12.40613
G1 X111.230 Y54.270 E12.42636
G1 X111.820 Y54.930 E12.44628
G1 X112.010 Y55.170 E12.45316
G1 X112.350 Y55.660 E12.46658
G1 X112.790 Y56.440 E12.48673
G1 X113.150 Y57.260 E12.50687
G1 X113.420 Y58.120 E12.52715
G1 X120.420 Y85.620 E13.16549
G1 X120.560 Y86.300 E13.18111
G1 X120.610 Y86.640 E13.18884
G1 X120.670 Y87.330 E13.20442
G1 X120.670 Y107.660 E13.66174
G1 X120.610 Y108.370 E13.67777
G1 X120.499 Y109.016 E13.69252
G1 X120.490 Y109.070 E13.69375
G1 F600.000 E12.69375
G92 E0
G1 X62.373 Y92.364 F12000.000
G1 F600.000 E1.00000
G1 X62.002 Y93.344 F840.000 E1.02357
G1 X61.217 Y94.038 E1.04714
G1 X60.200 Y94.289 E1.07071
G1 X59.183 Y94.038 E1.09428
G1 X58.398 Y93.344 E1.11786
G1 X58.027 Y92.364 E1.14143
G1 X58.153 Y91.324 E1.16500
G1 X58.748 Y90.461 E1.18857
G1 X59.676 Y89.974 E1.21214
G1 X60.724 Y89.974 E1.23571
G1 X61.652 Y90.461 E1.25928
G1 X62.247 Y91.324 E1.28285
G1 X62.367 Y92.310 E1.30520
G1 X62.373 Y92.364 E1.30642
G1 X62.646 Y92.605 F12000.000
G1 F600.000 E0.30642
G92 E0
G1 X60.724 Y100.774 F12000.000
G1 F600.000 E1.00000
G1 X61.652 Y101.261 F840.000 E1.02357
G1 X62.247 Y102.124 E1.04714
G1 X62.373 Y103.164 E1.07071
G1 X62.002 Y104.144 E1.09428
G1 X61.217 Y104.838 E1.11786
G1 X60.200 Y105.089 E1.14143
G1 X59.183 Y104.838 E1.16500
G1 X58.398 Y104.144 E1.18857
G1 X58.027 Y103.164 E1.21214
G1 X58.153 Y102.124 E1.23571
G1 X58.748 Y101.261 E1.25928
G1 X59.676 Y100.774 E1.28285
G1 X60.669 Y100.774 E1.30520
G1 X60.724 Y100.774 E1.30642
G1 X60.996 Y100.533 F12000.000
G1 F600.000 E0.30642
G92 E0
G1 X88.488 Y98.737 F12000.000
G1 F600.000 E1.00000
G1 X88.488 Y97.263 F1080.000 E1.03315
G1 X88.795 Y95.821 E1.06631
G1 X89.394 Y94.475 E1.09947
G1 X90.260 Y93.282 E1.13263
G1 X91.356 Y92.296 E1.16578
G1 X92.632 Y91.559 E1.19894
G1 X94.034 Y91.104 E1.23210
G1 X95.500 Y90.949 E1.26525
G1 X96.966 Y91.104 E1.29841
G1 X98.368 Y91.559 E1.33157
G1 X99.644 Y92.296 E1.36472
G1 X100.740 Y93.282 E1.39788
G1 X101.606 Y94.475 E1.43104
G1 X102.205 Y95.821 E1.46419
G1 X102.512 Y97.263 E1.49735
G1 X102.512 Y98.737 E1.53051
G1 X102.205 Y100.179 E1.56366
G1 X101.606 Y101.525 E1.59682
G1 X100.740 Y102.718 E1.62998
G1 X99.644 Y103.704 E1.66313
G1 X98.368 Y104.441 E1.69629
G1 X96.966 Y104.896 E1.72945
G1 X95.500 Y105.051 E1.76261
G1 X94.034 Y104.896 E1.79576
G1 X92.632 Y104.441 E1.82892
G1 X91.356 Y103.704 E1.86208
G1 X90.260 Y102.718 E1.89523
G1 X89.394 Y101.525 E1.92839
G1 X88.795 Y100.179 E1.96155
G1 X88.499 Y98.790 E1.99348
G1 X88.488 Y98.737 E1.99470
G1 X88.852 Y98.699 F12000.000
G1 X88.852 Y97.301 F1080.000 E2.02614
G1 X89.142 Y95.934 E2.05758
G1 X89.711 Y94.658 E2.08901
G1 X90.532 Y93.527 E2.12045
G1 X91.571 Y92.592 E2.15189
G1 X92.781 Y91.893 E2.18332
G1 X94.110 Y91.461 E2.21476
G1 X95.500 Y91.315 E2.24620
G1 X96.890 Y91.461 E2.27763
G1 X98.219 Y91.893 E2.30907
G1 X99.429 Y92.592 E2.34051
G1 X100.468 Y93.527 E2.37194
G1 X101.289 Y94.658 E2.40338
G1 X101.858 Y95.934 E2.43482
G1 X102.148 Y97.301 E2.46625
G1 X102.148 Y98.699 E2.49769
G1 X101.858 Y100.066 E2.52913
G1 X101.289 Y101.342 E2.56056
G1 X100.468 Y102.473 E2.59200
G1 X99.429 Y103.408 E2.62344
G1 X98.219 Y104.107 E2.65487
G1 X96.890 Y104.539 E2.68631
G1 X95.500 Y104.685 E2.71775
G1 X94.110 Y104.539 E2.74918
G1 X92.781 Y104.107 E2.78062
G1 X91.571 Y103.408 E2.81206
G1 X90.532 Y102.473 E2.84349
G1 X89.711 Y101.342 E2.87493
G1 X89.142 Y100.066 E2.90637
G1 X88.863 Y98.752 E2.93658
G1 X88.852 Y98.699 E2.93781
G1 X88.525 Y98.539 F12000.000
G1 F600.000 E1.93781
G92 E0
G1 X107.627 Y92.364 F12000.000
G1 F600.000 E1.00000
G1 X107.753 Y91.324 F840.000 E1.02357
G1 X108.348 Y90.461 E1.04714
G1 X109.276 Y89.974 E1.07071
G1 X110.324 Y89.974 E1.09429
G1 X111.252 Y90.461 E1.11786
G1 X111.847 Y91.324 E1.14143
G1 X111.973 Y92.364 E1.16500
G1 X111.602 Y93.344 E1.18857
G1 X110.817 Y94.038 E1.21214
G1 X109.800 Y94.289 E1.23571
G1 X108.783 Y94.038 E1.25928
G1 X107.998 Y93.344 E1.28286
G1 X107.646 Y92.415 E1.30520
G1 X107.627 Y92.364 E1.30643
G1 X107.305 Y92.195 F12000.000
G1 F600.000 E0.30643
G92 E0
G1 X109.276 Y100.774 F12000.000
G1 F600.000 E1.00000
G1 X110.324 Y100.774 F840.000 E1.02357
G1 X111.252 Y101.261 E1.04714
G1 X111.847 Y102.124 E1.07071
G1 X111.973 Y103.164 E1.09429
G1 X111.602 Y104.144 E1.11786
G1 X110.817 Y104.838 E1.14143
G1 X109.800 Y105.089 E1.16500
G1 X108.783 Y104.838 E1.18857
G1 X107.998 Y104.144 E1.21214
G1 X107.627 Y103.164 E1.23571
G1 X107.753 Y102.124 E1.25928
G1 X108.348 Y101.261 E1.28285
G1 X109.228 Y100.800 E1.30520
G1 X109.276 Y100.774 E1.30643
G1 X109.405 Y100.434 F12000.000
G1 F600.000 E0.30643
G92 E0
G1 X104.953 Y139.453 F12000.000
G1 F600.000 E1.00000
G1 X86.047 Y139.453 F1080.000 E1.42527
G1 X86.047 Y106.953 E2.15636
G1 X58.047 Y106.953 E2.78622
G1 X58.047 Y104.319 E2.84547
G1 X59.009 Y105.170 E2.87435
G1 X60.200 Y105.464 E2.90195
G1 X61.391 Y105.170 E2.92956
G1 X62.310 Y104.356 E2.95716
G1 X62.745 Y103.209 E2.98477
G1 X62.597 Y101.991 E3.01237
G1 X61.900 Y100.981 E3.03998
G1 X60.814 Y100.411 E3.06758
G1 X59.586 Y100.411 E3.09518
G1 X58.500 Y100.981 E3.12279
G1 X58.151 Y101.486 E3.13661
G1 X58.047 Y101.454 E3.13904
G1 X58.047 Y93.519 E3.31755
G1 X59.009 Y94.370 E3.34643
G1 X60.200 Y94.664 E3.37403
G1 X61.391 Y94.370 E3.40164
G1 X62.310 Y93.556 E3.42924
G1 X62.745 Y92.409 E3.45685
G1 X62.597 Y91.191 E3.48445
G1 X61.900 Y90.181 E3.51206
G1 X60.814 Y89.611 E3.53966
G1 X59.586 Y89.611 E3.56727
G1 X58.500 Y90.181 E3.59487
G1 X58.151 Y90.686 E3.60869
G1 X58.047 Y90.654 E3.61113
G1 X58.047 Y88.047 E3.66976
G1 X86.047 Y88.047 E4.29962
G1 X86.047 Y64.453 E4.83040
G1 X71.047 Y64.453 E5.16782
G1 X71.047 Y60.547 E5.25567
G1 X104.953 Y60.548 E6.01836
G1 X104.953 Y88.047 E6.63698
G1 X111.953 Y88.047 E6.79444
G1 X111.953 Y90.654 E6.85308
G1 X111.849 Y90.686 E6.85551
G1 X111.500 Y90.181 E6.86933
G1 X110.414 Y89.611 E6.89693
G1 X109.186 Y89.611 E6.92454
G1 X108.100 Y90.181 E6.95214
G1 X107.403 Y91.191 E6.97975
G1 X107.255 Y92.409 E7.00735
G1 X107.690 Y93.556 E7.03496
G1 X108.608 Y94.370 E7.06256
G1 X109.800 Y94.664 E7.09017
G1 X110.992 Y94.370 E7.11777
G1 X111.953 Y93.519 E7.14665
G1 X111.953 Y101.454 E7.32516
G1 X111.849 Y101.486 E7.32760
G1 X111.500 Y100.981 E7.34141
G1 X110.414 Y100.411 E7.36902
G1 X109.186 Y100.411 E7.39662
G1 X108.100 Y100.981 E7.42423
G1 X107.403 Y101.991 E7.45183
G1 X107.255 Y103.209 E7.47944
G1 X107.690 Y104.356 E7.50704
G1 X108.608 Y105.170 E7.53465
G1 X109.800 Y105.464 E7.56225
G1 X110.992 Y105.170 E7.58986
G1 X111.953 Y104.319 E7.61874
G1 X111.953 Y106.953 E7.67798
G1 X104.953 Y106.953 E7.83545
G1 X104.953 Y139.398 E8.56531
G1 X104.953 Y139.453 E8.56654
G1 X105.316 Y139.816 F12000.000
G1 X85.684 Y139.816 F1080.000 E9.00817
G1 X85.684 Y107.316 E9.73926
G1 X57.684 Y107.316 E10.36913
G1 X57.684 Y87.684 E10.81076
G1 X85.684 Y87.684 E11.44062
G1 X85.684 Y64.816 E11.95503
G1 X70.684 Y64.816 E12.29245
G1 X70.684 Y60.184 E12.39666
G1 X105.316 Y60.184 E13.17572
G1 X105.316 Y87.684 E13.79434
G1 X112.316 Y87.684 E13.95180
G1 X112.316 Y107.316 E14.39344
G1 X105.316 Y107.316 E14.55090
G1 X105.316 Y139.762 E15.28077
G1 X105.316 Y139.816 E15.28199
G1 X105.001 Y139.634 F12000.000
G1 F600.000 E14.28199
G92 E0
G1 X104.705 Y124.920 F12000.000
G1 F600.000 E1.00000
G1 X86.295 Y106.511 F1080.000 E1.58663
G1 X85.974 Y106.705 E1.59509
G1 X67.564 Y88.295 E2.18171
G1 X67.049 Y88.295 E2.19332
G1 X85.458 Y106.705 E2.77995
G1 X84.943 Y106.705 E2.79156
G1 X66.534 Y88.295 E3.37818
G1 X66.019 Y88.295 E3.38979
G1 X84.428 Y106.705 E3.97642
G1 X83.913 Y106.705 E3.98803
G1 X65.503 Y88.295 E4.57465
G1 X64.988 Y88.295 E4.58626
G1 X83.397 Y106.705 E5.17288
G1 X82.882 Y106.705 E5.18450
G1 X64.473 Y88.295 E5.77112
G1 X63.958 Y88.295 E5.78273
G1 X82.367 Y106.705 E6.36935
G1 X81.852 Y106.705 E6.38096
G1 X63.442 Y88.295 E6.96759
G1 X62.927 Y88.295 E6.97920
G1 X81.336 Y106.705 E7.56582
G1 X80.821 Y106.705 E7.57743
G1 X62.412 Y88.295 E8.16406
G1 X61.897 Y88.295 E8.17567
G1 X80.306 Y106.705 E8.76229
G1 X79.790 Y106.705 E8.77390
G1 X61.381 Y88.295 E9.36053
G1 X60.866 Y88.295 E9.37214
G1 X79.275 Y106.705 E9.95876
G1 X78.760 Y106.705 E9.97037
G1 X62.462 Y90.406 E10.48972
G1 X61.859 Y89.804 F12000.000
G1 X60.351 Y88.295 F1080.000 E10.53779
G1 X59.835 Y88.295 E10.54940
G1 X60.903 Y89.363 E10.58341
G1 X60.388 Y89.363 E10.59502
G1 X59.320 Y88.295 E10.62903
G1 X58.805 Y88.295 E10.64064
G1 X59.872 Y89.363 E10.67465
G1 X59.445 Y89.451 F12000.000
G1 X58.295 Y88.301 F1080.000 E10.71128
G1 X58.295 Y88.816 E10.72289
G1 X59.107 Y89.628 E10.74876
G1 X58.769 Y89.805 E10.75736
G1 X58.295 Y89.332 E10.77245
G1 F600.000 E9.77245
G92 E0
G1 X62.880 Y91.340 F12000.000
G1 F600.000 E1.00000
G1 X78.245 Y106.705 F1080.000 E1.48961
G1 X77.729 Y106.705 E1.50122
G1 X62.951 Y91.926 E1.97214
G1 X62.959 Y92.450 E1.98393
G1 X77.214 Y106.705 E2.43818
G1 X76.699 Y106.705 E2.44979
G1 X62.817 Y92.823 E2.89214
G1 X62.676 Y93.197 E2.90114
G1 X76.184 Y106.705 E3.33158
G1 X75.668 Y106.705 E3.34319
G1 X62.534 Y93.570 E3.76172
G1 X62.290 Y93.842 F12000.000
G1 X75.153 Y106.705 F1080.000 E4.17162
G1 X74.638 Y106.705 E4.18323
G1 X62.017 Y94.084 E4.58540
G1 X61.744 Y94.326 E4.59363
G1 X74.123 Y106.705 E4.98809
G1 X73.607 Y106.705 E4.99970
G1 X61.470 Y94.568 E5.38645
G1 X61.068 Y94.680 E5.39587
G1 X73.092 Y106.705 E5.77904
G1 X72.577 Y106.705 E5.79065
G1 X60.654 Y94.782 E6.17057
G1 X60.241 Y94.884 E6.18016
G1 X72.061 Y106.705 E6.55684
G1 X71.546 Y106.705 E6.56845
G1 X59.659 Y94.818 E6.94723
G1 X58.976 Y94.649 E6.96309
G1 X71.031 Y106.705 E7.34724
G1 X70.516 Y106.705 E7.35886
G1 X58.295 Y94.484 E7.74826
G1 X58.295 Y95.000 E7.75987
G1 X70.000 Y106.705 E8.13286
G1 X69.485 Y106.705 E8.14448
G1 X58.295 Y95.515 E8.50104
G1 X58.295 Y96.030 E8.51266
G1 X68.970 Y106.705 E8.85281
G1 X68.455 Y106.705 E8.86442
G1 X58.295 Y96.545 E9.18815
G1 X58.295 Y97.061 E9.19976
G1 X61.816 Y100.581 E9.31193
G1 X62.508 Y101.273 F12000.000
G1 X67.939 Y106.705 F1080.000 E9.48501
G1 X67.424 Y106.705 E9.49662
G1 X62.883 Y102.163 E9.64133
G1 X62.954 Y102.750 E9.65465
G1 X66.909 Y106.705 E9.78067
G1 X66.393 Y106.705 E9.79228
G1 X62.953 Y103.265 E9.90190
G1 X62.812 Y103.638 E9.91090
G1 X65.878 Y106.705 E10.00862
G1 X65.363 Y106.705 E10.02023
G1 X62.670 Y104.012 E10.10604
G1 X62.528 Y104.385 E10.11505
G1 X64.848 Y106.705 E10.18896
G1 X64.332 Y106.705 E10.20057
G1 X62.279 Y104.651 E10.26600
G1 X62.006 Y104.893 E10.27422
G1 X63.817 Y106.705 E10.33194
G1 X63.302 Y106.705 E10.34355
G1 X61.733 Y105.135 E10.39355
G1 X61.459 Y105.377 E10.40178
G1 X62.787 Y106.705 E10.44407
G1 X62.271 Y106.705 E10.45568
G1 X61.051 Y105.484 E10.49457
G1 X60.638 Y105.586 E10.50416
G1 X61.756 Y106.705 E10.53980
G1 X61.241 Y106.705 E10.55141
G1 X60.224 Y105.688 E10.58380
G1 X59.632 Y105.611 E10.59726
