; generated by Slic3r 0.9.8 on 2013-03-09 at 22:33:12

; layer_height = 0.21
; perimeters = 2
; top_solid_layers = 4
; bottom_solid_layers = 4
; fill_density = 0.2
; perimeter_speed = 45
; infill_speed = 45
; travel_speed = 200
; scale = 1
; nozzle_diameter = 0.35
; filament_diameter = 2.8
; extrusion_multiplier = 1.088
; perimeters extrusion width = 0.49mm
; infill extrusion width = 0.49mm
; first layer extrusion width = 0.37mm

M190 S70 ; wait for bed temperature to be reached
M104 S205 ; set temperature
G28 ; home all axes
M109 S205 ; wait for temperature to be reached
G90 ; use absolute coordinates
G21 ; set units to millimeters
G92 E0
M82 ; use absolute distances for extrusion
M106 S575
G1 F600.000 E-1.00000
G92 E0
G1 Z0.350 F12000.000
G1 X93.850 Y129.120
G1 F600.000 E1.00000
G1 X93.700 Y129.720 F1080.000 E1.01391
G1 X93.510 Y130.290 E1.02743
G1 X93.280 Y130.860 E1.04125
G1 X93.020 Y131.410 E1.05494
G1 X92.550 Y132.190 E1.07543
G1 X92.190 Y132.680 E1.08910
G1 X91.800 Y133.150 E1.10284
G1 X91.150 Y133.800 E1.12352
G1 X90.680 Y134.190 E1.13726
G1 X90.190 Y134.550 E1.15094
G1 X89.410 Y135.020 E1.17142
G1 X88.580 Y135.400 E1.19196
G1 X87.720 Y135.700 E1.21245
G1 X87.120 Y135.850 E1.22636
G1 X86.520 Y135.950 E1.24004
G1 X85.920 Y136.020 E1.25363
G1 X85.310 Y136.040 E1.26736
G1 X84.070 Y136.020 E1.29526
G1 X83.470 Y135.950 E1.30884
G1 X82.870 Y135.850 E1.32253
G1 X82.570 Y135.780 E1.32946
G1 X81.980 Y135.610 E1.34327
G1 X81.130 Y135.280 E1.36378
G1 X80.580 Y135.020 E1.37747
G1 X79.800 Y134.550 E1.39795
G1 X79.070 Y134.000 E1.41851
G1 X78.620 Y133.590 E1.43221
G1 X78.190 Y133.150 E1.44605
G1 X77.620 Y132.440 E1.46653
G1 X77.440 Y132.190 E1.47346
G1 X76.970 Y131.410 E1.49394
G1 X76.590 Y130.580 E1.51448
G1 X76.290 Y129.720 E1.53497
G1 X76.140 Y129.120 E1.54888
G1 X76.040 Y128.520 E1.56256
G1 X75.970 Y127.920 E1.57615
G1 X75.950 Y127.310 E1.58988
G1 X75.950 Y72.680 E2.81879
G1 X75.970 Y72.070 E2.83252
G1 X76.090 Y71.160 E2.85316
G1 X76.210 Y70.570 E2.86671
G1 X76.380 Y69.980 E2.88052
G1 X76.590 Y69.410 E2.89418
G1 X76.970 Y68.580 E2.91472
G1 X77.440 Y67.800 E2.93520
G1 X77.800 Y67.310 E2.94888
G1 X78.190 Y66.840 E2.96262
G1 X78.840 Y66.190 E2.98330
G1 X79.310 Y65.800 E2.99704
G1 X79.800 Y65.440 E3.01071
G1 X80.580 Y64.970 E3.03120
G1 X81.410 Y64.590 E3.05173
G1 X82.270 Y64.290 E3.07222
G1 X82.870 Y64.140 E3.08614
G1 X83.470 Y64.040 E3.09982
G1 X84.070 Y63.970 E3.11341
G1 X84.680 Y63.950 E3.12714
G1 X85.920 Y63.970 E3.15503
G1 X86.520 Y64.040 E3.16862
G1 X87.120 Y64.140 E3.18231
G1 X87.420 Y64.210 E3.18924
G1 X88.010 Y64.380 E3.20305
G1 X88.860 Y64.710 E3.22356
G1 X89.410 Y64.970 E3.23724
G1 X90.190 Y65.440 E3.25773
G1 X90.920 Y65.990 E3.27829
G1 X91.370 Y66.400 E3.29198
G1 X91.800 Y66.840 E3.30582
G1 X92.370 Y67.550 E3.32631
G1 X92.550 Y67.800 E3.33324
G1 X93.020 Y68.580 E3.35372
G1 X93.400 Y69.410 E3.37426
G1 X93.700 Y70.270 E3.39474
G1 X93.850 Y70.870 E3.40866
G1 X93.950 Y71.470 E3.42234
G1 X94.020 Y72.070 E3.43593
G1 X94.040 Y72.680 E3.44966
G1 X94.040 Y127.310 E4.67856
G1 X94.020 Y127.920 E4.69229
G1 X93.990 Y128.220 E4.69908
G1 X93.859 Y129.066 E4.71834
G1 X93.850 Y129.120 E4.71957
G1 X93.480 Y129.090 F12000.000
G1 X93.250 Y129.950 F1080.000 E4.73959
G1 X93.040 Y130.510 E4.75304
G1 X92.790 Y131.050 E4.76643
G1 X92.500 Y131.580 E4.78002
G1 X92.350 Y131.830 E4.78658
G1 X92.010 Y132.320 E4.80000
G1 X91.630 Y132.790 E4.81359
G1 X91.430 Y133.010 E4.82028
G1 X90.790 Y133.630 E4.84032
G1 X90.320 Y134.010 E4.85392
G1 X89.830 Y134.350 E4.86734
G1 X89.320 Y134.650 E4.88065
G1 X88.510 Y135.040 E4.90087
G1 X87.950 Y135.250 E4.91432
G1 X87.090 Y135.480 E4.93435
G1 X86.200 Y135.630 E4.95465
G1 X85.610 Y135.670 E4.96796
G1 X84.380 Y135.670 E4.99562
G1 X83.790 Y135.630 E5.00893
G1 X83.190 Y135.540 E5.02257
G1 X82.610 Y135.410 E5.03595
G1 X82.040 Y135.250 E5.04926
G1 X81.480 Y135.040 E5.06272
G1 X80.670 Y134.650 E5.08294
G1 X80.160 Y134.350 E5.09625
G1 X79.670 Y134.010 E5.10967
G1 X78.980 Y133.430 E5.12994
G1 X78.360 Y132.790 E5.14999
G1 X77.980 Y132.320 E5.16358
G1 X77.640 Y131.830 E5.17700
G1 X77.340 Y131.320 E5.19031
G1 X76.950 Y130.510 E5.21053
G1 X76.740 Y129.950 E5.22399
G1 X76.580 Y129.380 E5.23730
G1 X76.450 Y128.800 E5.25068
G1 X76.360 Y128.200 E5.26432
G1 X76.320 Y127.610 E5.27763
G1 X76.320 Y72.380 E6.52003
G1 X76.360 Y71.790 E6.53333
G1 X76.450 Y71.190 E6.54698
G1 X76.580 Y70.610 E6.56035
G1 X76.740 Y70.040 E6.57367
G1 X76.950 Y69.480 E6.58712
G1 X77.340 Y68.670 E6.60735
G1 X77.640 Y68.160 E6.62066
G1 X77.980 Y67.670 E6.63407
G1 X78.170 Y67.430 E6.64096
G1 X78.560 Y66.980 E6.65435
G1 X79.200 Y66.360 E6.67440
G1 X79.670 Y65.980 E6.68799
G1 X80.160 Y65.640 E6.70141
G1 X80.670 Y65.340 E6.71472
G1 X81.480 Y64.950 E6.73494
G1 X82.040 Y64.740 E6.74840
G1 X82.900 Y64.510 E6.76842
G1 X83.490 Y64.400 E6.78192
G1 X84.080 Y64.340 E6.79526
G1 X84.380 Y64.320 E6.80203
G1 X85.610 Y64.320 E6.82970
G1 X86.200 Y64.360 E6.84300
G1 X87.090 Y64.510 E6.86330
G1 X87.950 Y64.740 E6.88333
G1 X88.510 Y64.950 E6.89678
G1 X89.320 Y65.340 E6.91700
G1 X89.830 Y65.640 E6.93031
G1 X90.320 Y65.980 E6.94373
G1 X91.010 Y66.560 E6.96401
G1 X91.630 Y67.200 E6.98405
G1 X92.010 Y67.670 E6.99765
G1 X92.350 Y68.160 E7.01106
G1 X92.650 Y68.670 E7.02437
G1 X93.040 Y69.480 E7.04460
G1 X93.250 Y70.040 E7.05805
G1 X93.410 Y70.610 E7.07137
G1 X93.540 Y71.190 E7.08474
G1 X93.630 Y71.790 E7.09839
G1 X93.670 Y72.380 E7.11169
G1 X93.670 Y127.610 E8.35409
G1 X93.630 Y128.200 E8.36740
G1 X93.491 Y129.037 E8.38647
G1 X93.480 Y129.090 E8.38770
G1 F600.000 E7.38770
G92 E0
G1 X84.684 Y72.684 F12000.000
G1 F600.000 E1.00000
G1 X85.316 Y72.684 F1080.000 E1.01423
G1 X85.316 Y127.316 E2.24319
G1 X84.684 Y127.316 E2.25742
G1 X84.684 Y72.738 E3.48515
G1 X84.684 Y72.684 E3.48638
G1 F600.000 E2.48638
G92 E0
G1 X85.027 Y127.112 F12000.000
G1 F600.000 E1.00000
G1 X84.888 Y126.973 F1080.000 E1.00269
G1 X85.112 Y126.886 E1.00597
G1 X84.888 Y126.661 E1.01030
G1 X85.112 Y126.575 E1.01358
G1 X84.888 Y126.350 E1.01791
G1 X85.112 Y126.263 E1.02119
G1 X84.888 Y126.039 E1.02552
G1 X85.112 Y125.952 E1.02880
G1 X84.888 Y125.727 E1.03313
G1 X85.112 Y125.641 E1.03641
G1 X84.888 Y125.416 E1.04074
G1 X85.112 Y125.330 E1.04402
G1 X84.888 Y125.105 E1.04834
G1 X85.112 Y125.018 E1.05163
G1 X84.888 Y124.793 E1.05595
G1 X85.112 Y124.707 E1.05923
G1 X84.888 Y124.482 E1.06356
G1 X85.112 Y124.396 E1.06684
G1 X84.888 Y124.171 E1.07117
G1 X85.112 Y124.084 E1.07445
G1 X84.888 Y123.859 E1.07878
G1 X85.112 Y123.773 E1.08206
G1 X84.888 Y123.548 E1.08639
G1 X85.112 Y123.462 E1.08967
G1 X84.888 Y123.237 E1.09400
G1 X85.112 Y123.150 E1.09728
G1 X84.888 Y122.925 E1.10161
G1 X85.112 Y122.839 E1.10489
G1 X84.888 Y122.614 E1.10921
G1 X85.112 Y122.528 E1.11250
G1 X84.888 Y122.303 E1.11682
G1 X85.112 Y122.216 E1.12010
G1 X84.888 Y121.991 E1.12443
G1 X85.112 Y121.905 E1.12771
G1 X84.888 Y121.680 E1.13204
G1 X85.112 Y121.594 E1.13532
G1 X84.888 Y121.369 E1.13965
G1 X85.112 Y121.282 E1.14293
G1 X84.888 Y121.057 E1.14726
G1 X85.112 Y120.971 E1.15054
G1 X84.888 Y120.746 E1.15487
G1 X85.112 Y120.660 E1.15815
G1 X84.888 Y120.435 E1.16248
G1 X85.112 Y120.348 E1.16576
G1 X84.888 Y120.124 E1.17008
G1 X85.112 Y120.037 E1.17337
G1 X84.888 Y119.812 E1.17769
G1 X85.112 Y119.726 E1.18097
G1 X84.888 Y119.501 E1.18530
G1 X85.112 Y119.414 E1.18858
G1 X84.888 Y119.190 E1.19291
G1 X85.112 Y119.103 E1.19619
G1 X84.888 Y118.878 E1.20052
G1 X85.112 Y118.792 E1.20380
G1 X84.888 Y118.567 E1.20813
G1 X85.112 Y118.480 E1.21141
G1 X84.888 Y118.256 E1.21574
G1 X85.112 Y118.169 E1.21902
G1 X84.888 Y117.944 E1.22335
G1 X85.112 Y117.858 E1.22663
G1 X84.888 Y117.633 E1.23096
G1 X85.112 Y117.546 E1.23423
G1 X84.888 Y117.322 E1.23856
G1 X85.112 Y117.235 E1.24184
G1 X84.888 Y117.010 E1.24617
G1 X85.112 Y116.924 E1.24945
G1 X84.888 Y116.699 E1.25378
G1 X85.112 Y116.612 E1.25706
G1 X84.888 Y116.388 E1.26139
G1 X85.112 Y116.301 E1.26467
G1 X84.888 Y116.076 E1.26900
G1 X85.112 Y115.990 E1.27228
G1 X84.888 Y115.765 E1.27661
G1 X85.112 Y115.678 E1.27989
G1 X84.888 Y115.454 E1.28422
G1 X85.112 Y115.367 E1.28750
G1 X84.888 Y115.142 E1.29182
G1 X85.112 Y115.056 E1.29510
G1 X84.888 Y114.831 E1.29943
G1 X85.112 Y114.745 E1.30271
G1 X84.888 Y114.520 E1.30704
G1 X85.112 Y114.433 E1.31032
G1 X84.888 Y114.208 E1.31465
G1 X85.112 Y114.122 E1.31793
G1 X84.888 Y113.897 E1.32226
G1 X85.112 Y113.811 E1.32554
G1 X84.888 Y113.586 E1.32987
G1 X85.112 Y113.499 E1.33315
G1 X84.888 Y113.274 E1.33748
G1 X85.112 Y113.188 E1.34076
G1 X84.888 Y112.963 E1.34509
G1 X85.112 Y112.877 E1.34837
G1 X84.888 Y112.652 E1.35269
G1 X85.112 Y112.565 E1.35597
G1 X84.888 Y112.340 E1.36030
G1 X85.112 Y112.254 E1.36358
G1 X84.888 Y112.029 E1.36791
G1 X85.112 Y111.943 E1.37119
G1 X84.888 Y111.718 E1.37552
G1 X85.112 Y111.631 E1.37880
G1 X84.888 Y111.406 E1.38313
G1 X85.112 Y111.320 E1.38641
G1 X84.888 Y111.095 E1.39074
G1 X85.112 Y111.009 E1.39402
G1 X84.888 Y110.784 E1.39835
G1 X85.112 Y110.697 E1.40163
G1 X84.888 Y110.472 E1.40596
G1 X85.112 Y110.386 E1.40924
G1 X84.888 Y110.161 E1.41356
G1 X85.112 Y110.075 E1.41684
G1 X84.888 Y109.850 E1.42117
G1 X85.112 Y109.763 E1.42445
G1 X84.888 Y109.539 E1.42878
G1 X85.112 Y109.452 E1.43206
G1 X84.888 Y109.227 E1.43639
G1 X85.112 Y109.141 E1.43967
G1 X84.888 Y108.916 E1.44400
G1 X85.112 Y108.829 E1.44728
G1 X84.888 Y108.605 E1.45161
G1 X85.112 Y108.518 E1.45489
G1 X84.888 Y108.293 E1.45922
G1 X85.112 Y108.207 E1.46250
G1 X84.888 Y107.982 E1.46683
G1 X85.112 Y107.895 E1.47011
G1 X84.888 Y107.671 E1.47443
G1 X85.112 Y107.584 E1.47771
G1 X84.888 Y107.359 E1.48204
G1 X85.112 Y107.273 E1.48532
G1 X84.888 Y107.048 E1.48965
G1 X85.112 Y106.961 E1.49293
G1 X84.888 Y106.737 E1.49726
G1 X85.112 Y106.650 E1.50054
G1 X84.888 Y106.425 E1.50487
G1 X85.112 Y106.339 E1.50815
G1 X84.888 Y106.114 E1.51248
G1 X85.112 Y106.027 E1.51576
G1 X84.888 Y105.803 E1.52009
G1 X85.112 Y105.716 E1.52337
G1 X84.888 Y105.491 E1.52770
G1 X85.112 Y105.405 E1.53097
G1 X84.888 Y105.180 E1.53530
G1 X85.112 Y105.094 E1.53858
G1 X84.888 Y104.869 E1.54291
G1 X85.112 Y104.782 E1.54619
G1 X84.888 Y104.557 E1.55052
G1 X85.112 Y104.471 E1.55380
G1 X84.888 Y104.246 E1.55813
G1 X85.112 Y104.160 E1.56141
G1 X84.888 Y103.935 E1.56574
G1 X85.112 Y103.848 E1.56902
G1 X84.888 Y103.623 E1.57335
G1 X85.112 Y103.537 E1.57663
G1 X84.888 Y103.312 E1.58096
G1 X85.112 Y103.226 E1.58424
G1 X84.888 Y103.001 E1.58857
G1 X85.112 Y102.914 E1.59184
G1 X84.888 Y102.689 E1.59617
G1 X85.112 Y102.603 E1.59945
G1 X84.888 Y102.378 E1.60378
G1 X85.112 Y102.292 E1.60706
G1 X84.888 Y102.067 E1.61139
G1 X85.112 Y101.980 E1.61467
G1 X84.888 Y101.755 E1.61900
G1 X85.112 Y101.669 E1.62228
G1 X84.888 Y101.444 E1.62661
G1 X85.112 Y101.358 E1.62989
G1 X84.888 Y101.133 E1.63422
G1 X85.112 Y101.046 E1.63750
G1 X84.888 Y100.821 E1.64183
G1 X85.112 Y100.735 E1.64511
G1 X84.888 Y100.510 E1.64944
G1 X85.112 Y100.424 E1.65271
G1 X84.888 Y100.199 E1.65704
G1 X85.112 Y100.112 E1.66032
G1 X84.888 Y99.888 E1.66465
G1 X85.112 Y99.801 E1.66793
G1 X84.888 Y99.576 E1.67226
G1 X85.112 Y99.490 E1.67554
G1 X84.888 Y99.265 E1.67987
G1 X85.112 Y99.178 E1.68315
G1 X84.888 Y98.954 E1.68748
G1 X85.112 Y98.867 E1.69076
G1 X84.888 Y98.642 E1.69509
G1 X85.112 Y98.556 E1.69837
G1 X84.888 Y98.331 E1.70270
G1 X85.112 Y98.244 E1.70598
G1 X84.888 Y98.020 E1.71031
G1 X85.112 Y97.933 E1.71358
G1 X84.888 Y97.708 E1.71791
G1 X85.112 Y97.622 E1.72119
G1 X84.888 Y97.397 E1.72552
G1 X85.112 Y97.310 E1.72880
G1 X84.888 Y97.086 E1.73313
G1 X85.112 Y96.999 E1.73641
G1 X84.888 Y96.774 E1.74074
G1 X85.112 Y96.688 E1.74402
G1 X84.888 Y96.463 E1.74835
G1 X85.112 Y96.376 E1.75163
G1 X84.888 Y96.152 E1.75596
G1 X85.112 Y96.065 E1.75924
G1 X84.888 Y95.840 E1.76357
G1 X85.112 Y95.754 E1.76685
G1 X84.888 Y95.529 E1.77118
G1 X85.112 Y95.442 E1.77445
G1 X84.888 Y95.218 E1.77878
G1 X85.112 Y95.131 E1.78206
G1 X84.888 Y94.906 E1.78639
G1 X85.112 Y94.820 E1.78967
G1 X84.888 Y94.595 E1.79400
G1 X85.112 Y94.509 E1.79728
G1 X84.888 Y94.284 E1.80161
G1 X85.112 Y94.197 E1.80489
G1 X84.888 Y93.972 E1.80922
G1 X85.112 Y93.886 E1.81250
G1 X84.888 Y93.661 E1.81683
G1 X85.112 Y93.575 E1.82011
G1 X84.888 Y93.350 E1.82444
G1 X85.112 Y93.263 E1.82772
G1 X84.888 Y93.038 E1.83205
G1 X85.112 Y92.952 E1.83532
G1 X84.888 Y92.727 E1.83965
G1 X85.112 Y92.641 E1.84293
G1 X84.888 Y92.416 E1.84726
G1 X85.112 Y92.329 E1.85054
G1 X84.888 Y92.104 E1.85487
G1 X85.112 Y92.018 E1.85815
G1 X84.888 Y91.793 E1.86248
G1 X85.112 Y91.707 E1.86576
G1 X84.888 Y91.482 E1.87009
G1 X85.112 Y91.395 E1.87337
G1 X84.888 Y91.170 E1.87770
G1 X85.112 Y91.084 E1.88098
G1 X84.888 Y90.859 E1.88531
G1 X85.112 Y90.773 E1.88859
G1 X84.888 Y90.548 E1.89291
G1 X85.112 Y90.461 E1.89619
G1 X84.888 Y90.236 E1.90052
G1 X85.112 Y90.150 E1.90380
G1 X84.888 Y89.925 E1.90813
G1 X85.112 Y89.839 E1.91141
G1 X84.888 Y89.614 E1.91574
G1 X85.112 Y89.527 E1.91902
G1 X84.888 Y89.303 E1.92335
G1 X85.112 Y89.216 E1.92663
G1 X84.888 Y88.991 E1.93096
G1 X85.112 Y88.905 E1.93424
G1 X84.888 Y88.680 E1.93857
G1 X85.112 Y88.593 E1.94185
G1 X84.888 Y88.369 E1.94618
G1 X85.112 Y88.282 E1.94946
G1 X84.888 Y88.057 E1.95378
G1 X85.112 Y87.971 E1.95706
G1 X84.888 Y87.746 E1.96139
G1 X85.112 Y87.659 E1.96467
G1 X84.888 Y87.435 E1.96900
G1 X85.112 Y87.348 E1.97228
G1 X84.888 Y87.123 E1.97661
G1 X85.112 Y87.037 E1.97989
G1 X84.888 Y86.812 E1.98422
G1 X85.112 Y86.725 E1.98750
G1 X84.888 Y86.501 E1.99183
G1 X85.112 Y86.414 E1.99511
G1 X84.888 Y86.189 E1.99944
G1 X85.112 Y86.103 E2.00272
G1 X84.888 Y85.878 E2.00705
G1 X85.112 Y85.791 E2.01033
G1 X84.888 Y85.567 E2.01465
G1 X85.112 Y85.480 E2.01793
G1 X84.888 Y85.255 E2.02226
G1 X85.112 Y85.169 E2.02554
G1 X84.888 Y84.944 E2.02987
G1 X85.112 Y84.858 E2.03315
G1 X84.888 Y84.633 E2.03748
G1 X85.112 Y84.546 E2.04076
G1 X84.888 Y84.321 E2.04509
G1 X85.112 Y84.235 E2.04837
G1 X84.888 Y84.010 E2.05270
G1 X85.112 Y83.924 E2.05598
G1 X84.888 Y83.699 E2.06031
G1 X85.112 Y83.612 E2.06359
G1 X84.888 Y83.387 E2.06792
G1 X85.112 Y83.301 E2.07119
G1 X84.888 Y83.076 E2.07552
G1 X85.112 Y82.990 E2.07880
G1 X84.888 Y82.765 E2.08313
G1 X85.112 Y82.678 E2.08641
G1 X84.888 Y82.453 E2.09074
G1 X85.112 Y82.367 E2.09402
G1 X84.888 Y82.142 E2.09835
G1 X85.112 Y82.056 E2.10163
G1 X84.888 Y81.831 E2.10596
G1 X85.112 Y81.744 E2.10924
G1 X84.888 Y81.519 E2.11357
G1 X85.112 Y81.433 E2.11685
G1 X84.888 Y81.208 E2.12118
G1 X85.112 Y81.122 E2.12446
G1 X84.888 Y80.897 E2.12879
G1 X85.112 Y80.810 E2.13206
G1 X84.888 Y80.586 E2.13639
G1 X85.112 Y80.499 E2.13967
G1 X84.888 Y80.274 E2.14400
G1 X85.112 Y80.188 E2.14728
G1 X84.888 Y79.963 E2.15161
G1 X85.112 Y79.876 E2.15489
G1 X84.888 Y79.652 E2.15922
G1 X85.112 Y79.565 E2.16250
G1 X84.888 Y79.340 E2.16683
G1 X85.112 Y79.254 E2.17011
G1 X84.888 Y79.029 E2.17444
G1 X85.112 Y78.942 E2.17772
G1 X84.888 Y78.718 E2.18205
G1 X85.112 Y78.631 E2.18533
G1 X84.888 Y78.406 E2.18965
G1 X85.112 Y78.320 E2.19293
G1 X84.888 Y78.095 E2.19726
G1 X85.112 Y78.008 E2.20054
G1 X84.888 Y77.784 E2.20487
G1 X85.112 Y77.697 E2.20815
G1 X84.888 Y77.472 E2.21248
G1 X85.112 Y77.386 E2.21576
G1 X84.888 Y77.161 E2.22009
G1 X85.112 Y77.074 E2.22337
G1 X84.888 Y76.850 E2.22770
G1 X85.112 Y76.763 E2.23098
G1 X84.888 Y76.538 E2.23531
G1 X85.112 Y76.452 E2.23859
G1 X84.888 Y76.227 E2.24292
G1 X85.112 Y76.140 E2.24620
G1 X84.888 Y75.916 E2.25052
G1 X85.112 Y75.829 E2.25380
G1 X84.888 Y75.604 E2.25813
G1 X85.112 Y75.518 E2.26141
G1 X84.888 Y75.293 E2.26574
G1 X85.112 Y75.207 E2.26902
G1 X84.888 Y74.982 E2.27335
G1 X85.112 Y74.895 E2.27663
G1 X84.888 Y74.670 E2.28096
G1 X85.112 Y74.584 E2.28424
G1 X84.888 Y74.359 E2.28857
G1 X85.112 Y74.273 E2.29185
G1 X84.888 Y74.048 E2.29618
G1 X85.112 Y73.961 E2.29946
G1 X84.888 Y73.736 E2.30379
G1 X85.112 Y73.650 E2.30707
G1 X84.888 Y73.425 E2.31139
G1 X85.112 Y73.339 E2.31467
G1 X84.888 Y73.114 E2.31900
G1 X85.112 Y73.027 E2.32228
G1 X84.973 Y72.888 E2.32497
M106 S637
M140 S60 ; set bed temperature
G1 F600.000 E1.32497
G92 E0
G1 Z0.560 F12000.000
G1 X84.744 Y72.744
G1 F600.000 E1.00000
G1 X85.256 Y72.744 F600.000 E1.00871
G1 X85.256 Y127.256 E1.93542
G1 X84.744 Y127.256 E1.94413
