; generated by Slic3r 0.9.8 on 2013-03-18 at 19:55:07

; layer_height = 0.21
; perimeters = 2
; top_solid_layers = 4
; bottom_solid_layers = 4
; fill_density = 0.2
; perimeter_speed = 45
; infill_speed = 45
; travel_speed = 200
; scale = 1
; nozzle_diameter = 0.35
; filament_diameter = 2.8
; extrusion_multiplier = 1.088
; perimeters extrusion width = 0.49mm
; infill extrusion width = 0.49mm
; first layer extrusion width = 0.70mm

M107
M190 S70 ; wait for bed temperature to be reached
M104 S200 ; set temperature
G28 ; home all axes
M109 S200 ; wait for temperature to be reached
G90 ; use absolute coordinates
G21 ; set units to millimeters
G92 E0
M82 ; use absolute distances for extrusion
G1 F600.000 E-1.00000
G92 E0
G1 Z0.350 F12000.000
G1 X70.029 Y139.406
G1 F600.000 E1.00000
G1 X69.059 Y139.196 F1350.000 E1.03835
G1 X68.119 Y138.876 E1.07673
G1 X67.519 Y138.606 E1.10215
G1 X66.929 Y138.296 E1.12791
G1 X48.109 Y127.426 E1.96781
G1 X47.249 Y126.866 E2.00747
G1 X46.709 Y126.436 E2.03414
G1 X46.209 Y125.966 E2.06066
G1 X45.739 Y125.466 E2.08718
G1 X34.109 Y112.006 E2.77462
G1 X32.379 Y109.916 E2.87947
G1 X31.699 Y108.976 E2.92430
G1 X30.239 Y106.676 E3.02958
G1 X29.669 Y105.636 E3.07541
G1 X28.519 Y103.176 E3.18035
G1 X28.099 Y102.116 E3.22442
G1 X27.259 Y99.536 E3.32927
G1 X26.969 Y98.406 E3.37435
G1 X26.459 Y95.726 E3.47978
G1 X26.319 Y94.576 E3.52455
G1 X26.149 Y91.866 E3.62949
G1 X26.149 Y90.706 E3.67431
G1 X26.319 Y87.996 E3.77925
G1 X26.459 Y86.836 E3.82440
G1 X26.969 Y84.166 E3.92945
G1 X27.259 Y83.056 E3.97379
G1 X28.099 Y80.466 E4.07901
G1 X28.519 Y79.396 E4.12343
G1 X29.669 Y76.936 E4.22837
G1 X30.249 Y75.886 E4.27473
G1 X31.709 Y73.596 E4.37968
G1 X32.369 Y72.686 E4.42312
G1 X34.099 Y70.586 E4.52827
G1 X34.919 Y69.706 E4.57475
G1 X36.909 Y67.846 E4.68002
G1 X37.769 Y67.136 E4.72312
G1 X39.959 Y65.536 E4.82793
G1 X40.969 Y64.896 E4.87414
G1 X43.359 Y63.586 E4.97947
G1 X44.399 Y63.096 E5.02389
G1 X46.919 Y62.096 E5.12867
G1 X48.049 Y61.726 E5.17462
G1 X50.689 Y61.056 E5.27987
G1 X51.809 Y60.846 E5.32391
G1 X54.509 Y60.506 E5.42908
G1 X55.669 Y60.436 E5.47399
G1 X58.379 Y60.436 E5.57872
G1 X59.539 Y60.506 E5.62362
G1 X62.239 Y60.846 E5.72879
G1 X63.359 Y61.056 E5.77283
G1 X65.999 Y61.726 E5.87808
G1 X67.129 Y62.096 E5.92404
G1 X69.649 Y63.096 E6.02881
G1 X117.179 Y83.316 E8.02491
G1 X118.189 Y83.816 E8.06846
G1 X139.119 Y95.906 E9.00255
G1 X139.649 Y96.236 E9.02668
G1 X140.159 Y96.606 E9.05103
G1 X140.879 Y97.226 E9.08775
G1 X141.529 Y97.916 E9.12438
G1 X142.109 Y98.666 E9.16102
G1 X142.449 Y99.206 E9.18568
G1 X142.889 Y100.036 E9.22198
G1 X143.019 Y100.326 E9.23426
G1 X143.239 Y100.916 E9.25860
G1 X143.339 Y101.216 E9.27082
G1 X143.499 Y101.826 E9.29519
G1 X143.569 Y102.136 E9.30747
G1 X143.669 Y102.766 E9.33212
G1 X143.739 Y103.706 E9.36855
G1 X143.739 Y104.026 E9.38092
G1 X143.709 Y104.656 E9.40529
G1 X143.589 Y105.596 E9.44191
G1 X143.369 Y106.516 E9.47847
G1 X143.169 Y107.116 E9.50291
G1 X142.799 Y107.986 E9.53944
G1 X142.499 Y108.546 E9.56400
G1 X136.009 Y119.786 E10.06557
G1 X135.469 Y120.606 E10.10352
G1 X135.059 Y121.126 E10.12911
G1 X134.619 Y121.616 E10.15456
G1 X134.139 Y122.076 E10.18025
G1 X133.889 Y122.286 E10.19287
G1 X133.369 Y122.686 E10.21822
G1 X132.809 Y123.056 E10.24416
G1 X132.529 Y123.226 E10.25682
G1 X131.939 Y123.526 E10.28240
G1 X131.339 Y123.786 E10.30767
G1 X130.389 Y124.086 E10.34617
G1 X73.959 Y139.216 E12.60393
G1 X72.989 Y139.426 E12.64229
G1 X72.329 Y139.506 E12.66798
G1 X71.999 Y139.526 E12.68076
G1 X71.339 Y139.536 E12.70627
G1 X70.679 Y139.496 E12.73182
G1 X70.122 Y139.420 E12.75355
G1 X70.029 Y139.406 E12.75718
G1 X70.129 Y138.796 F12000.000
G1 X69.529 Y138.666 F1350.000 E12.78090
G1 X68.929 Y138.506 E12.80490
G1 X68.639 Y138.406 E12.81675
G1 X67.789 Y138.046 E12.85243
G1 X67.249 Y137.756 E12.87611
G1 X48.429 Y126.886 E13.71601
G1 X47.819 Y126.496 E13.74399
G1 X47.239 Y126.066 E13.77189
G1 X46.459 Y125.326 E13.81344
G1 X34.709 Y111.746 E14.50742
G1 X32.869 Y109.516 E14.61915
G1 X32.229 Y108.636 E14.66120
G1 X30.769 Y106.336 E14.76648
G1 X30.239 Y105.366 E14.80919
G1 X29.089 Y102.906 E14.91413
G1 X28.699 Y101.926 E14.95490
G1 X27.859 Y99.346 E15.05975
G1 X27.589 Y98.286 E15.10202
G1 X27.079 Y95.606 E15.20745
G1 X26.939 Y94.536 E15.24915
G1 X26.769 Y91.826 E15.35409
G1 X26.769 Y90.746 E15.39582
G1 X26.939 Y88.036 E15.50076
G1 X27.079 Y86.956 E15.54284
G1 X27.589 Y84.286 E15.64789
G1 X27.859 Y83.246 E15.68941
G1 X28.699 Y80.656 E15.79464
G1 X29.089 Y79.666 E15.83576
G1 X30.239 Y77.206 E15.94070
G1 X30.779 Y76.216 E15.98428
G1 X32.239 Y73.926 E16.08923
G1 X32.849 Y73.086 E16.12935
G1 X34.579 Y70.986 E16.23450
G1 X35.349 Y70.166 E16.27797
G1 X37.339 Y68.306 E16.38323
G1 X38.139 Y67.646 E16.42331
G1 X40.329 Y66.046 E16.52813
G1 X41.269 Y65.446 E16.57122
G1 X43.659 Y64.136 E16.67655
G1 X44.629 Y63.676 E16.71804
G1 X47.149 Y62.676 E16.82281
G1 X48.209 Y62.336 E16.86583
G1 X50.849 Y61.666 E16.97109
G1 X51.889 Y61.466 E17.01201
G1 X54.589 Y61.126 E17.11718
G1 X55.669 Y61.066 E17.15898
G1 X58.379 Y61.066 E17.26371
G1 X59.459 Y61.126 E17.30551
G1 X62.159 Y61.466 E17.41067
G1 X63.199 Y61.666 E17.45160
G1 X65.839 Y62.336 E17.55686
G1 X66.899 Y62.676 E17.59988
G1 X69.619 Y63.756 E17.71298
G1 X116.939 Y83.886 E19.70025
G1 X117.869 Y84.356 E19.74052
G1 X138.799 Y96.446 E20.67460
G1 X139.559 Y96.936 E20.70955
G1 X140.039 Y97.306 E20.73297
G1 X140.699 Y97.926 E20.76797
G1 X141.289 Y98.606 E20.80276
G1 X141.809 Y99.346 E20.83771
G1 X142.109 Y99.866 E20.86091
G1 X142.369 Y100.406 E20.88407
G1 X142.599 Y100.966 E20.90747
G1 X142.779 Y101.536 E20.93057
G1 X142.929 Y102.126 E20.95409
G1 X143.069 Y103.016 E20.98891
G1 X143.109 Y103.616 E21.01215
G1 X143.109 Y104.216 E21.03533
G1 X143.069 Y104.816 E21.05857
G1 X142.929 Y105.706 E21.09339
G1 X142.779 Y106.296 E21.11692
G1 X142.489 Y107.146 E21.15162
G1 X142.109 Y107.966 E21.18655
G1 X135.469 Y119.466 E21.69973
G1 X134.969 Y120.246 E21.73553
G1 X134.379 Y120.956 E21.77121
G1 X134.169 Y121.186 E21.78324
G1 X133.729 Y121.606 E21.80675
G1 X132.999 Y122.186 E21.84278
G1 X132.489 Y122.516 E21.86626
G1 X131.949 Y122.826 E21.89032
G1 X131.399 Y123.086 E21.91383
G1 X130.529 Y123.406 E21.94965
G1 X73.799 Y138.616 E24.21942
G1 X73.199 Y138.756 E24.24323
G1 X72.889 Y138.806 E24.25536
G1 X71.969 Y138.896 E24.29109
G1 X71.049 Y138.896 E24.32664
G1 X70.739 Y138.876 E24.33864
G1 X70.222 Y138.808 E24.35880
G1 X70.129 Y138.796 E24.36242
G1 F600.000 E23.36242
G92 E0
G1 X59.285 Y98.235 F12000.000
G1 F600.000 E1.00000
G1 X58.397 Y98.463 F1350.000 E1.03543
G1 X58.080 Y98.503 E1.04777
G1 X55.978 Y98.503 E1.12901
G1 X55.661 Y98.463 E1.14135
G1 X54.773 Y98.235 E1.17676
G1 X53.921 Y97.898 E1.21219
G1 X53.118 Y97.456 E1.24761
G1 X52.376 Y96.917 E1.28304
G1 X51.708 Y96.290 E1.31845
G1 X51.312 Y95.811 E1.34247
G1 X50.225 Y93.929 E1.42644
G1 X49.959 Y93.108 E1.45980
G1 X49.787 Y92.208 E1.49523
G1 X49.729 Y91.293 E1.53066
G1 X49.787 Y90.378 E1.56608
G1 X49.959 Y89.478 E1.60150
G1 X50.225 Y88.657 E1.63487
G1 X51.312 Y86.775 E1.71885
G1 X51.708 Y86.296 E1.74286
G1 X52.376 Y85.669 E1.77828
G1 X52.581 Y85.520 E1.78808
G1 X53.118 Y85.130 E1.81370
G1 X53.921 Y84.688 E1.84913
G1 X54.773 Y84.351 E1.88455
G1 X55.661 Y84.123 E1.91997
G1 X55.978 Y84.083 E1.93232
G1 X58.080 Y84.083 E2.01356
G1 X58.397 Y84.123 E2.02589
G1 X59.285 Y84.351 E2.06131
G1 X60.137 Y84.688 E2.09674
G1 X60.940 Y85.130 E2.13217
G1 X61.682 Y85.669 E2.16759
G1 X62.350 Y86.296 E2.20301
G1 X62.746 Y86.775 E2.22703
G1 X63.833 Y88.657 E2.31100
G1 X64.099 Y89.478 E2.34436
G1 X64.271 Y90.378 E2.37979
G1 X64.329 Y91.293 E2.41521
G1 X64.271 Y92.208 E2.45064
G1 X64.099 Y93.108 E2.48605
G1 X63.832 Y93.930 E2.51944
G1 X62.746 Y95.811 E2.60340
G1 X62.350 Y96.290 E2.62742
G1 X61.682 Y96.917 E2.66283
G1 X60.940 Y97.456 E2.69825
G1 X60.137 Y97.898 E2.73368
G1 X59.372 Y98.201 E2.76548
G1 X59.285 Y98.235 E2.76911
G1 X59.091 Y97.640 F12000.000
G1 X58.279 Y97.848 F1350.000 E2.80149
G1 X58.041 Y97.878 E2.81080
G1 X56.017 Y97.878 E2.88900
G1 X55.778 Y97.848 E2.89829
G1 X54.967 Y97.640 E2.93067
G1 X54.188 Y97.331 E2.96306
G1 X53.453 Y96.928 E2.99545
G1 X52.775 Y96.435 E3.02783
G1 X52.164 Y95.861 E3.06022
G1 X51.827 Y95.453 E3.08068
G1 X50.800 Y93.674 E3.16008
G1 X50.565 Y92.953 E3.18939
G1 X50.408 Y92.129 E3.22178
G1 X50.356 Y91.293 E3.25417
G1 X50.408 Y90.457 E3.28655
G1 X50.565 Y89.634 E3.31894
G1 X50.800 Y88.912 E3.34826
G1 X51.827 Y87.133 E3.42766
G1 X52.164 Y86.725 E3.44811
G1 X52.775 Y86.151 E3.48050
G1 X52.949 Y86.025 E3.48878
G1 X53.453 Y85.658 E3.51289
G1 X54.188 Y85.255 E3.54527
G1 X54.967 Y84.946 E3.57766
G1 X55.778 Y84.738 E3.61004
G1 X56.017 Y84.708 E3.61935
G1 X58.041 Y84.708 E3.69755
G1 X58.280 Y84.738 E3.70684
G1 X59.091 Y84.946 E3.73923
G1 X59.870 Y85.255 E3.77162
G1 X60.605 Y85.658 E3.80400
G1 X61.283 Y86.151 E3.83639
G1 X61.894 Y86.725 E3.86877
G1 X62.231 Y87.133 E3.88924
G1 X63.258 Y88.912 E3.96863
G1 X63.493 Y89.633 E3.99795
G1 X63.650 Y90.457 E4.03033
G1 X63.702 Y91.293 E4.06272
G1 X63.650 Y92.129 E4.09511
G1 X63.493 Y92.953 E4.12749
G1 X63.258 Y93.674 E4.15682
G1 X62.231 Y95.454 E4.23621
G1 X61.894 Y95.861 E4.25667
G1 X61.283 Y96.435 E4.28905
G1 X60.605 Y96.928 E4.32144
G1 X59.870 Y97.331 E4.35383
G1 X59.178 Y97.605 E4.38259
G1 X59.091 Y97.640 E4.38621
G1 X58.948 Y98.248 F12000.000
G1 F600.000 E3.38621
G92 E0
G1 X37.482 Y99.032 F12000.000
G1 F600.000 E1.00000
G1 X36.666 Y96.521 F1350.000 E1.10202
G1 X36.172 Y93.928 E1.20405
G1 X36.006 Y91.293 E1.30608
G1 X36.172 Y88.658 E1.40811
G1 X36.666 Y86.065 E1.51014
G1 X37.482 Y83.554 E1.61216
G1 X38.606 Y81.165 E1.71419
G1 X40.021 Y78.936 E1.81622
G1 X41.704 Y76.902 E1.91824
G1 X43.628 Y75.094 E2.02027
G1 X45.764 Y73.543 E2.12230
G1 X48.078 Y72.271 E2.22433
G1 X50.532 Y71.299 E2.32635
G1 X53.090 Y70.642 E2.42838
G1 X55.709 Y70.311 E2.53041
G1 X58.349 Y70.311 E2.63244
G1 X60.968 Y70.642 E2.73446
G1 X63.526 Y71.299 E2.83649
G1 X65.980 Y72.271 E2.93852
G1 X68.294 Y73.543 E3.04055
G1 X70.430 Y75.094 E3.14257
G1 X72.354 Y76.902 E3.24460
G1 X74.037 Y78.936 E3.34663
G1 X75.452 Y81.165 E3.44865
G1 X76.576 Y83.554 E3.55068
G1 X77.392 Y86.065 E3.65271
G1 X77.886 Y88.658 E3.75474
G1 X78.052 Y91.293 E3.85676
G1 X77.886 Y93.928 E3.95879
G1 X77.392 Y96.521 E4.06082
G1 X76.590 Y98.988 E4.16105
G1 X113.444 Y92.490 E5.60724
G1 X120.403 Y96.508 E5.91779
G1 X120.308 Y96.795 E5.92947
G1 X119.452 Y96.696 E5.96278
G1 X119.054 Y96.700 E5.97818
G1 X118.658 Y96.754 E5.99361
G1 X118.273 Y96.857 E6.00903
G1 X117.902 Y97.008 E6.02448
G1 X117.556 Y97.204 E6.03987
G1 X117.235 Y97.442 E6.05529
G1 X116.846 Y97.816 E6.07613
G1 X116.287 Y95.729 E6.15963
G1 X73.835 Y107.104 E7.85807
G1 X74.394 Y109.190 E7.94155
G1 X73.871 Y109.062 E7.96239
G1 X73.474 Y109.016 E7.97781
G1 X73.075 Y109.020 E7.99323
G1 X72.680 Y109.074 E8.00864
G1 X72.295 Y109.177 E8.02406
G1 X71.925 Y109.328 E8.03948
G1 X71.578 Y109.524 E8.05490
G1 X71.257 Y109.762 E8.07032
G1 X70.970 Y110.038 E8.08573
G1 X70.718 Y110.348 E8.10115
G1 X70.508 Y110.687 E8.11656
G1 X70.342 Y111.050 E8.13198
G1 X70.223 Y111.430 E8.14740
G1 X70.152 Y111.823 E8.16281
G1 X70.131 Y112.222 E8.17823
G1 X70.161 Y112.620 E8.19366
G1 X70.233 Y112.981 E8.20789
G1 X71.129 Y116.324 E8.34165
G1 X71.247 Y116.673 E8.35587
G1 X71.420 Y117.032 E8.37129
G1 X71.637 Y117.366 E8.38671
G1 X71.895 Y117.671 E8.40213
G1 X72.189 Y117.941 E8.41755
G1 X72.514 Y118.172 E8.43296
G1 X72.865 Y118.361 E8.44838
G1 X73.238 Y118.504 E8.46380
G1 X73.625 Y118.599 E8.47922
G1 X74.774 Y118.732 E8.52390
G1 X73.846 Y119.421 E8.56858
G1 X73.558 Y119.697 E8.58400
G1 X73.307 Y120.007 E8.59942
G1 X73.096 Y120.346 E8.61484
G1 X72.930 Y120.709 E8.63026
G1 X72.811 Y121.090 E8.64568
G1 X72.740 Y121.482 E8.66109
G1 X72.719 Y121.881 E8.67651
G1 X72.749 Y122.279 E8.69193
G1 X72.822 Y122.640 E8.70616
G1 X73.717 Y125.983 E8.83992
G1 X73.835 Y126.332 E8.85415
G1 X74.008 Y126.691 E8.86957
G1 X74.226 Y127.026 E8.88499
G1 X74.483 Y127.330 E8.90040
G1 X74.777 Y127.600 E8.91582
G1 X75.102 Y127.832 E8.93124
G1 X75.454 Y128.020 E8.94666
G1 X76.079 Y128.260 E8.97252
G1 X76.070 Y128.433 E8.97922
G1 X71.650 Y129.617 E9.15604
G1 X53.594 Y119.193 E9.96177
G1 X57.588 Y112.275 E10.27047
G1 X55.709 Y112.275 E10.34308
G1 X53.090 Y111.944 E10.44511
G1 X50.532 Y111.287 E10.54714
G1 X48.078 Y110.315 E10.64916
G1 X45.764 Y109.043 E10.75119
G1 X43.628 Y107.492 E10.85322
G1 X41.704 Y105.684 E10.95525
G1 X40.021 Y103.650 E11.05727
G1 X38.606 Y101.421 E11.15930
G1 X37.522 Y99.117 E11.25771
G1 X37.482 Y99.032 E11.26133
G1 F600.000 E10.26133
G92 E0
G1 X75.310 Y118.588 F12000.000
G1 F600.000 E1.00000
G1 X76.238 Y117.899 F1050.000 E1.04468
G1 X76.628 Y117.526 E1.06552
G1 X76.982 Y118.849 E1.11849
G1 X76.459 Y118.721 E1.13933
G1 X75.403 Y118.599 E1.18038
G1 X75.310 Y118.588 E1.18401
G1 F600.000 E0.18401
G92 E0
G1 X125.017 Y115.318 F12000.000
G1 F600.000 E1.00000
G1 X124.923 Y115.174 F1350.000 E1.00665
G1 X125.344 Y114.651 E1.03256
G1 X125.554 Y114.314 E1.04793
G1 X125.720 Y113.951 E1.06335
G1 X125.839 Y113.570 E1.07876
G1 X125.910 Y113.176 E1.09424
G1 X125.931 Y112.778 E1.10964
G1 X125.902 Y112.380 E1.12505
G1 X125.828 Y112.019 E1.13930
G1 X122.345 Y99.017 E1.65950
G1 X122.228 Y98.669 E1.67369
G1 X122.054 Y98.309 E1.68915
G1 X121.478 Y97.424 E1.72994
G1 X121.659 Y97.233 E1.74012
G1 X133.639 Y104.150 E2.27473
G1 X127.590 Y114.628 E2.74231
G1 X125.107 Y115.293 E2.84162
G1 X125.017 Y115.318 E2.84525
G1 X124.400 Y114.760 F12000.000
G1 X124.632 Y114.538 F1350.000 E2.85766
G1 X124.833 Y114.289 E2.87002
G1 X125.002 Y114.017 E2.88239
G1 X125.135 Y113.726 E2.89477
G1 X125.232 Y113.421 E2.90715
G1 X125.288 Y113.105 E2.91955
G1 X125.305 Y112.785 E2.93192
G1 X125.281 Y112.466 E2.94430
G1 X125.220 Y112.162 E2.95626
G1 X124.254 Y108.554 E3.10061
G1 X121.746 Y99.198 E3.47495
G1 X121.648 Y98.905 E3.48689
G1 X121.508 Y98.616 E3.49928
G1 X121.333 Y98.348 E3.51167
G1 X121.127 Y98.103 E3.52404
G1 X120.891 Y97.886 E3.53644
G1 X120.630 Y97.701 E3.54879
G1 X120.348 Y97.549 E3.56116
G1 X120.049 Y97.435 E3.57354
G1 X119.738 Y97.358 E3.58591
G1 X119.419 Y97.321 E3.59831
G1 X119.099 Y97.325 E3.61068
G1 X118.782 Y97.368 E3.62307
G1 X118.472 Y97.451 E3.63545
G1 X118.175 Y97.572 E3.64784
G1 X117.897 Y97.729 E3.66020
G1 X117.640 Y97.920 E3.67259
G1 X117.409 Y98.142 E3.68495
G1 X117.207 Y98.391 E3.69732
G1 X116.611 Y99.350 E3.74099
G1 X115.845 Y96.494 E3.85526
G1 X74.600 Y107.546 E5.50541
G1 X75.366 Y110.403 E5.61973
G1 X74.370 Y109.869 E5.66342
G1 X74.071 Y109.754 E5.67579
G1 X73.760 Y109.678 E5.68817
G1 X73.441 Y109.641 E5.70055
G1 X73.121 Y109.644 E5.71293
G1 X72.804 Y109.688 E5.72531
G1 X72.494 Y109.771 E5.73769
G1 X72.198 Y109.892 E5.75006
G1 X71.919 Y110.049 E5.76244
G1 X71.662 Y110.240 E5.77482
G1 X71.430 Y110.462 E5.78720
G1 X71.229 Y110.711 E5.79958
G1 X71.060 Y110.983 E5.81196
G1 X70.927 Y111.274 E5.82434
G1 X70.831 Y111.580 E5.83672
G1 X70.774 Y111.895 E5.84909
G1 X70.757 Y112.215 E5.86147
G1 X70.781 Y112.534 E5.87385
G1 X70.842 Y112.838 E5.88581
G1 X71.706 Y116.061 E6.01475
G1 X71.826 Y116.436 E6.03000
G1 X71.966 Y116.724 E6.04237
G1 X72.140 Y116.993 E6.05475
G1 X72.347 Y117.238 E6.06713
G1 X72.583 Y117.455 E6.07951
G1 X72.844 Y117.640 E6.09189
G1 X73.126 Y117.792 E6.10427
G1 X73.425 Y117.906 E6.11665
G1 X73.736 Y117.983 E6.12903
G1 X74.054 Y118.020 E6.14141
G1 X74.375 Y118.016 E6.15378
G1 X74.692 Y117.973 E6.16616
G1 X75.001 Y117.890 E6.17854
G1 X75.298 Y117.769 E6.19092
G1 X75.577 Y117.612 E6.20330
G1 X75.834 Y117.421 E6.21568
G1 X76.065 Y117.199 E6.22805
G1 X76.267 Y116.950 E6.24043
G1 X76.863 Y115.989 E6.28412
G1 X77.954 Y120.062 E6.44708
G1 X76.958 Y119.528 E6.49076
G1 X76.659 Y119.414 E6.50314
G1 X76.348 Y119.337 E6.51553
G1 X76.030 Y119.300 E6.52791
G1 X75.709 Y119.304 E6.54028
G1 X75.392 Y119.347 E6.55266
G1 X75.083 Y119.430 E6.56504
G1 X74.786 Y119.551 E6.57742
G1 X74.507 Y119.708 E6.58979
G1 X74.250 Y119.899 E6.60217
G1 X74.019 Y120.121 E6.61455
G1 X73.817 Y120.370 E6.62693
G1 X73.648 Y120.642 E6.63931
G1 X73.515 Y120.933 E6.65169
G1 X73.419 Y121.239 E6.66407
G1 X73.362 Y121.554 E6.67645
G1 X73.346 Y121.874 E6.68883
